Information listing created by	Nikola
Date	10-Apr-2025 14:07:36


%
OBall Endmill with pedestal_setup_1_3
(PART  FILE  NAME: BALL ENDMILL WITH PEDESTAL_SETUP_1_1.PRT )
(PROGRAMMED  UNIT: IN)
(PROGRAMMED    BY: NIKOLA)
(PROGRAMMED    ON: THU APR 10,2025,14:07           )
(NX POSTPROCESSOR: HAAS_UMC750_5AXIS_MILL_IN )
 
(----------------- TOOL TABLE SUMMARY --------------------)
(TOOL-NO.   TOOL-NAME                   DIAMETER   OFFSET )
(   17      MILL_0.75_ROUGH              19.050      17    )
(   18      MILL_0.75_FINISH             19.050      18    )
(   25      BALL_MILL_0.25               6.350      25    )
(--------------END OF TOOL TABLE SUMMARY -----------------)
 
N5 G40 G17 G94 G98 G90 G00 G49 G20
 
( *** TOOL CHANGE: T17: MILL_0.75_ROUGH *** )
 
( OPER: ROTARY_ROUGHING )
N10 G53 G00 Z0.0
N15 G53 G00 X-29.9793 Y-10.8101
N20 G91 G28 B0.0 C0.0
N25 G90
N30 T17 M06
N35 T18
N40 M01
N45 G53 G00 Z0.0
N50 S2883 M03
N55 G17 G54 G90
N60 M11 ( C-AXIS UNLOCK )
N65 M13 ( B-AXIS UNLOCK )
N70 G00 B90. C-162.779
N75 G234 H17
N80 G90 X-2.4741 Y-.7668 Z.4274
N85 X-1.8348 Y-.5687
N90 G01 X-.5686 Y-.1762 F9.8 M08
N95 X-.5591 Y-.2043 Z.4244 C-159.927
N100 X-.5483 Y-.2319 Z.4214 C-157.075
N105 X-.536 Y-.2589 Z.4185 C-154.223
N110 X-.5225 Y-.2852 Z.4155 C-151.371
N115 X-.5077 Y-.3109 Z.4125 C-148.519
N120 X-.4916 Y-.3357 Z.4096 C-145.667
N125 X-.4743 Y-.3598 Z.4066 C-142.816
N130 X-.4558 Y-.3829 Z.4036 C-139.964
N135 X-.4361 Y-.4051 Z.4006 C-137.112
N140 X-.4154 Y-.4263 Z.3977 C-134.26
N145 X-.3937 Y-.4465 Z.3947 C-131.408
N150 X-.371 Y-.4655 Z.3917 C-128.556
N155 X-.3474 Y-.4834 Z.3888 C-125.704
N160 X-.3229 Y-.5001 Z.3858 C-122.852
N165 X-.2976 Y-.5155 Z.3828 C-120.
N170 X-.2716 Y-.5297 Z.3798 C-117.143
N175 X-.2448 Y-.5426 Z.3769 C-114.286
N180 X-.2175 Y-.5541 Z.3739 C-111.429
N185 X-.1896 Y-.5643 Z.3709 C-108.571
N190 X-.1612 Y-.573 Z.3679 C-105.714
N195 X-.1325 Y-.5804 Z.365 C-102.857
N200 X-.1034 Y-.5862 Z.362 C-100.
N205 X-.074 Y-.5907 Z.359 C-97.143
N210 X-.0445 Y-.5936 Z.356 C-94.286
N215 X-.0148 Y-.5951 Z.3531 C-91.429
N220 X.0148 Z.3501 C-88.571
N225 X.0445 Y-.5936 Z.3471 C-85.714
N230 X.074 Y-.5907 Z.3441 C-82.857
N235 X.1034 Y-.5862 Z.3411 C-80.
N240 X.1325 Y-.5804 Z.3382 C-77.143
N245 X.1612 Y-.573 Z.3352 C-74.286
N250 X.1896 Y-.5643 Z.3322 C-71.429
N255 X.2175 Y-.5541 Z.3292 C-68.571
N260 X.2448 Y-.5426 Z.3263 C-65.714
N265 X.2716 Y-.5297 Z.3233 C-62.857
N270 X.2976 Y-.5155 Z.3203 C-60.
N275 X.3218 Y-.5008 Z.3175 C-57.273
N280 X.3453 Y-.4849 Z.3146 C-54.545
N285 X.368 Y-.4679 Z.3118 C-51.818
N290 X.3898 Y-.4499 Z.3089 C-49.091
N295 X.4108 Y-.4308 Z.3061 C-46.364
N300 X.4308 Y-.4108 Z.3033 C-43.636
N305 X.4499 Y-.3898 Z.3004 C-40.909
N310 X.4679 Y-.368 Z.2976 C-38.182
N315 X.4849 Y-.3453 Z.2947 C-35.455
N320 X.5008 Y-.3218 Z.2919 C-32.727
N325 X.5155 Y-.2976 Z.2891 C-30.
N330 X.5291 Y-.2728 Z.2862 C-27.273
N335 X.5415 Y-.2473 Z.2834 C-24.545
N340 X.5526 Y-.2212 Z.2805 C-21.818
N345 X.5625 Y-.1947 Z.2777 C-19.091
N350 X.5712 Y-.1677 Z.2749 C-16.364
N355 X.5785 Y-.1403 Z.272 C-13.636
N360 X.5845 Y-.1127 Z.2692 C-10.909
N365 X.5892 Y-.0847 Z.2663 C-8.182
N370 X.5926 Y-.0566 Z.2635 C-5.455
N375 X.5946 Y-.0283 Z.2607 C-2.727
N380 X.5953 Y0.0 Z.2578 C0.0
N385 X.5945 Y.0297 Z.2548 C2.857
N390 X.5923 Y.0593 Z.2519 C5.714
N395 X.5886 Y.0887 Z.2489 C8.571
N400 X.5835 Y.118 Z.2459 C11.429
N405 X.5769 Y.1469 Z.2429 C14.286
N410 X.5688 Y.1755 Z.24 C17.143
N415 X.5594 Y.2036 Z.237 C20.
N420 X.5485 Y.2312 Z.234 C22.857
N425 X.5363 Y.2583 Z.231 C25.714
N430 X.5228 Y.2847 Z.2281 C28.571
N435 X.5079 Y.3104 Z.2251 C31.429
N440 X.4918 Y.3353 Z.2221 C34.286
N445 X.4745 Y.3594 Z.2191 C37.143
N450 X.456 Y.3826 Z.2161 C40.
N455 X.4364 Y.4049 Z.2132 C42.857
N460 X.4156 Y.4261 Z.2102 C45.714
N465 X.3939 Y.4463 Z.2072 C48.571
N470 X.3711 Y.4654 Z.2042 C51.429
N475 X.3475 Y.4833 Z.2013 C54.286
N480 X.323 Y.5 Z.1983 C57.143
N485 X.2976 Y.5155 Z.1953 C60.
N490 X.2716 Y.5297 Z.1923 C62.857
N495 X.2448 Y.5426 Z.1894 C65.714
N500 X.2175 Y.5541 Z.1864 C68.571
N505 X.1896 Y.5643 Z.1834 C71.429
N510 X.1612 Y.573 Z.1804 C74.286
N515 X.1325 Y.5804 Z.1775 C77.143
N520 X.1034 Y.5862 Z.1745 C80.
N525 X.074 Y.5907 Z.1715 C82.857
N530 X.0445 Y.5936 Z.1685 C85.714
N535 X.0148 Y.5951 Z.1656 C88.571
N540 X-.0148 Z.1626 C91.429
N545 X-.0445 Y.5936 Z.1596 C94.286
N550 X-.074 Y.5907 Z.1566 C97.143
N555 X-.1034 Y.5862 Z.1536 C100.
N560 X-.1325 Y.5804 Z.1507 C102.857
N565 X-.1612 Y.573 Z.1477 C105.714
N570 X-.1896 Y.5643 Z.1447 C108.571
N575 X-.2175 Y.5541 Z.1417 C111.429
N580 X-.2448 Y.5426 Z.1388 C114.286
N585 X-.2716 Y.5297 Z.1358 C117.143
N590 X-.2976 Y.5155 Z.1328 C120.
N595 X-.3218 Y.5008 Z.13 C122.727
N600 X-.3453 Y.4849 Z.1271 C125.455
N605 X-.368 Y.4679 Z.1243 C128.182
N610 X-.3898 Y.4499 Z.1214 C130.909
N615 X-.4108 Y.4308 Z.1186 C133.636
N620 X-.4308 Y.4108 Z.1158 C136.364
N625 X-.4499 Y.3898 Z.1129 C139.091
N630 X-.4679 Y.368 Z.1101 C141.818
N635 X-.4849 Y.3453 Z.1072 C144.545
N640 X-.5008 Y.3218 Z.1044 C147.273
N645 X-.5155 Y.2976 Z.1016 C150.
N650 X-.5291 Y.2728 Z.0987 C152.727
N655 X-.5415 Y.2473 Z.0959 C155.455
N660 X-.5526 Y.2212 Z.093 C158.182
N665 X-.5625 Y.1947 Z.0902 C160.909
N670 X-.5712 Y.1677 Z.0874 C163.636
N675 X-.5785 Y.1403 Z.0845 C166.364
N680 X-.5845 Y.1127 Z.0817 C169.091
N685 X-.5892 Y.0847 Z.0788 C171.818
N690 X-.5926 Y.0566 Z.076 C174.545
N695 X-.5946 Y.0283 Z.0732 C177.273
N700 X-.5953 Y0.0 Z.0703 C180.
N705 X-.5946 Y-.0283 Z.0675 C182.727
N710 X-.5926 Y-.0566 Z.0646 C185.455
N715 X-.5892 Y-.0847 Z.0618 C188.182
N720 X-.5845 Y-.1127 Z.0589 C190.909
N725 X-.5785 Y-.1403 Z.0561 C193.636
N730 X-.5712 Y-.1677 Z.0533 C196.364
N735 X-.5625 Y-.1947 Z.0504 C199.091
N740 X-.5526 Y-.2212 Z.0476 C201.818
N745 X-.5415 Y-.2473 Z.0447 C204.545
N750 X-.5291 Y-.2728 Z.0419 C207.273
N755 X-.5155 Y-.2976 Z.0391 C210.
N760 X-.5008 Y-.3218 Z.0362 C212.727
N765 X-.4849 Y-.3453 Z.0334 C215.455
N770 X-.4679 Y-.368 Z.0305 C218.182
N775 X-.4499 Y-.3898 Z.0277 C220.909
N780 X-.4308 Y-.4108 Z.0249 C223.636
N785 X-.4108 Y-.4308 Z.022 C226.364
N790 X-.3898 Y-.4499 Z.0192 C229.091
N795 X-.368 Y-.4679 Z.0163 C231.818
N800 X-.3453 Y-.4849 Z.0135 C234.545
N805 X-.3218 Y-.5008 Z.0107 C237.273
N810 X-.2976 Y-.5155 Z.0078 C240.
N815 X-.2716 Y-.5297 Z.0048 C242.857
N820 X-.2448 Y-.5426 Z.0019 C245.714
N825 X-.2175 Y-.5541 Z-.0011 C248.571
N830 X-.1896 Y-.5643 Z-.0041 C251.429
N835 X-.1612 Y-.573 Z-.0071 C254.286
N840 X-.1325 Y-.5804 Z-.01 C257.143
N845 X-.1034 Y-.5862 Z-.013 C260.
N850 X-.074 Y-.5907 Z-.016 C262.857
N855 X-.0445 Y-.5936 Z-.019 C265.714
N860 X-.0148 Y-.5951 Z-.0219 C268.571
N865 X.0148 Z-.0249 C271.429
N870 X.0445 Y-.5936 Z-.0279 C274.286
N875 X.074 Y-.5907 Z-.0309 C277.143
N880 X.1034 Y-.5862 Z-.0339 C280.
N885 X.1325 Y-.5804 Z-.0368 C282.857
N890 X.1612 Y-.573 Z-.0398 C285.714
N895 X.1896 Y-.5643 Z-.0428 C288.571
N900 X.2175 Y-.5541 Z-.0458 C291.429
N905 X.2448 Y-.5426 Z-.0487 C294.286
N910 X.2716 Y-.5297 Z-.0517 C297.143
N915 X.2976 Y-.5155 Z-.0547 C300.
N920 X.3218 Y-.5008 Z-.0575 C302.727
N925 X.3453 Y-.4849 Z-.0604 C305.455
N930 X.368 Y-.4679 Z-.0632 C308.182
N935 X.3898 Y-.4499 Z-.0661 C310.909
N940 X.4108 Y-.4308 Z-.0689 C313.636
N945 X.4308 Y-.4108 Z-.0717 C316.364
N950 X.4499 Y-.3898 Z-.0746 C319.091
N955 X.4679 Y-.368 Z-.0774 C321.818
N960 X.4849 Y-.3453 Z-.0803 C324.545
N965 X.5008 Y-.3218 Z-.0831 C327.273
N970 X.5155 Y-.2976 Z-.0859 C330.
N975 X.5291 Y-.2728 Z-.0888 C332.727
N980 X.5415 Y-.2473 Z-.0916 C335.455
N985 X.5526 Y-.2212 Z-.0945 C338.182
N990 X.5625 Y-.1947 Z-.0973 C340.909
N995 X.5712 Y-.1677 Z-.1001 C343.636
N1000 X.5785 Y-.1403 Z-.103 C346.364
N1005 X.5845 Y-.1127 Z-.1058 C349.091
N1010 X.5892 Y-.0847 Z-.1087 C351.818
N1015 X.5926 Y-.0566 Z-.1115 C354.545
N1020 X.5946 Y-.0283 Z-.1143 C357.273
N1025 X.5953 Y0.0 Z-.1172 C360.
N1030 X.5946 Y.0283 Z-.12 C362.727
N1035 X.5926 Y.0566 Z-.1229 C365.455
N1040 X.5892 Y.0847 Z-.1257 C368.182
N1045 X.5845 Y.1127 Z-.1286 C370.909
N1050 X.5785 Y.1403 Z-.1314 C373.636
N1055 X.5712 Y.1677 Z-.1342 C376.364
N1060 X.5625 Y.1947 Z-.1371 C379.091
N1065 X.5526 Y.2212 Z-.1399 C381.818
N1070 X.5415 Y.2473 Z-.1428 C384.545
N1075 X.5291 Y.2728 Z-.1456 C387.273
N1080 X.5155 Y.2976 Z-.1484 C390.
N1085 X.5008 Y.3218 Z-.1513 C392.727
N1090 X.4849 Y.3453 Z-.1541 C395.455
N1095 X.4679 Y.368 Z-.157 C398.182
N1100 X.4499 Y.3898 Z-.1598 C400.909
N1105 X.4308 Y.4108 Z-.1626 C403.636
N1110 X.4108 Y.4308 Z-.1655 C406.364
N1115 X.3898 Y.4499 Z-.1683 C409.091
N1120 X.368 Y.4679 Z-.1712 C411.818
N1125 X.3453 Y.4849 Z-.174 C414.545
N1130 X.3218 Y.5008 Z-.1768 C417.273
N1135 X.2976 Y.5155 Z-.1797 C420.
N1140 X.2728 Y.5291 Z-.1825 C422.727
N1145 X.2473 Y.5415 Z-.1854 C425.455
N1150 X.2212 Y.5526 Z-.1882 C428.182
N1155 X.1947 Y.5625 Z-.1911 C430.909
N1160 X.1677 Y.5712 Z-.1939 C433.636
N1165 X.1403 Y.5785 Z-.1967 C436.364
N1170 X.1127 Y.5845 Z-.1996 C439.091
N1175 X.0847 Y.5892 Z-.2024 C441.818
N1180 X.0566 Y.5926 Z-.2053 C444.545
N1185 X.0283 Y.5946 Z-.2081 C447.273
N1190 X0.0 Y.5953 Z-.2109 C450.
N1195 X-.0283 Y.5946 Z-.2138 C452.727
N1200 X-.0566 Y.5926 Z-.2166 C455.455
N1205 X-.0847 Y.5892 Z-.2195 C458.182
N1210 X-.1127 Y.5845 Z-.2223 C460.909
N1215 X-.1403 Y.5785 Z-.2251 C463.636
N1220 X-.1677 Y.5712 Z-.228 C466.364
N1225 X-.1947 Y.5625 Z-.2308 C469.091
N1230 X-.2212 Y.5526 Z-.2337 C471.818
N1235 X-.2473 Y.5415 Z-.2365 C474.545
N1240 X-.2728 Y.5291 Z-.2393 C477.273
N1245 X-.2976 Y.5155 Z-.2422 C480.
N1250 X-.3218 Y.5008 Z-.245 C482.727
N1255 X-.3453 Y.4849 Z-.2479 C485.455
N1260 X-.368 Y.4679 Z-.2507 C488.182
N1265 X-.3898 Y.4499 Z-.2536 C490.909
N1270 X-.4108 Y.4308 Z-.2564 C493.636
N1275 X-.4308 Y.4108 Z-.2592 C496.364
N1280 X-.4499 Y.3898 Z-.2621 C499.091
N1285 X-.4679 Y.368 Z-.2649 C501.818
N1290 X-.4849 Y.3453 Z-.2678 C504.545
N1295 X-.5008 Y.3218 Z-.2706 C507.273
N1300 X-.5155 Y.2976 Z-.2734 C510.
N1305 X-.5291 Y.2728 Z-.2763 C512.727
N1310 X-.5415 Y.2473 Z-.2791 C515.455
N1315 X-.5526 Y.2212 Z-.282 C518.182
N1320 X-.5625 Y.1947 Z-.2848 C520.909
N1325 X-.5712 Y.1677 Z-.2876 C523.636
N1330 X-.5785 Y.1403 Z-.2905 C526.364
N1335 X-.5845 Y.1127 Z-.2933 C529.091
N1340 X-.5892 Y.0847 Z-.2962 C531.818
N1345 X-.5926 Y.0566 Z-.299 C534.545
N1350 X-.5946 Y.0283 Z-.3018 C537.273
N1355 X-.5953 Y0.0 Z-.3047 C540.
N1360 X-.5946 Y-.0283 Z-.3075 C542.727
N1365 X-.5926 Y-.0566 Z-.3104 C545.455
N1370 X-.5892 Y-.0847 Z-.3132 C548.182
N1375 X-.5845 Y-.1127 Z-.3161 C550.909
N1380 X-.5785 Y-.1403 Z-.3189 C553.636
N1385 X-.5712 Y-.1677 Z-.3217 C556.364
N1390 X-.5625 Y-.1947 Z-.3246 C559.091
N1395 X-.5526 Y-.2212 Z-.3274 C561.818
N1400 X-.5415 Y-.2473 Z-.3303 C564.545
N1405 X-.5291 Y-.2728 Z-.3331 C567.273
N1410 X-.5155 Y-.2976 Z-.3359 C570.
N1415 X-.5008 Y-.3218 Z-.3388 C572.727
N1420 X-.4849 Y-.3453 Z-.3416 C575.455
N1425 X-.4679 Y-.368 Z-.3445 C578.182
N1430 X-.4499 Y-.3898 Z-.3473 C580.909
N1435 X-.4308 Y-.4108 Z-.3501 C583.636
N1440 X-.4108 Y-.4308 Z-.353 C586.364
N1445 X-.3898 Y-.4499 Z-.3558 C589.091
N1450 X-.368 Y-.4679 Z-.3587 C591.818
N1455 X-.3453 Y-.4849 Z-.3615 C594.545
N1460 X-.3218 Y-.5008 Z-.3643 C597.273
N1465 X-.2976 Y-.5155 Z-.3672 C600.
N1470 X-.2716 Y-.5297 Z-.3702 C602.857
N1475 X-.2448 Y-.5426 Z-.3731 C605.714
N1480 X-.2175 Y-.5541 Z-.3761 C608.571
N1485 X-.1896 Y-.5643 Z-.3791 C611.429
N1490 X-.1612 Y-.573 Z-.3821 C614.286
N1495 X-.1325 Y-.5804 Z-.385 C617.143
N1500 X-.1034 Y-.5862 Z-.388 C620.
N1505 X-.074 Y-.5907 Z-.391 C622.857
N1510 X-.0445 Y-.5936 Z-.394 C625.714
N1515 X-.0148 Y-.5951 Z-.3969 C628.571
N1520 X.0148 Z-.3999 C631.429
N1525 X.0445 Y-.5936 Z-.4029 C634.286
N1530 X.074 Y-.5907 Z-.4059 C637.143
N1535 X.1034 Y-.5862 Z-.4089 C640.
N1540 X.1325 Y-.5804 Z-.4118 C642.857
N1545 X.1612 Y-.573 Z-.4148 C645.714
N1550 X.1896 Y-.5643 Z-.4178 C648.571
N1555 X.2175 Y-.5541 Z-.4208 C651.429
N1560 X.2448 Y-.5426 Z-.4237 C654.286
N1565 X.2716 Y-.5297 Z-.4267 C657.143
N1570 X.2976 Y-.5155 Z-.4297 C660.
N1575 X.3218 Y-.5008 Z-.4325 C662.727
N1580 X.3453 Y-.4849 Z-.4354 C665.455
N1585 X.368 Y-.4679 Z-.4382 C668.182
N1590 X.3898 Y-.4499 Z-.4411 C670.909
N1595 X.4108 Y-.4308 Z-.4439 C673.636
N1600 X.4308 Y-.4108 Z-.4467 C676.364
N1605 X.4499 Y-.3898 Z-.4496 C679.091
N1610 X.4679 Y-.368 Z-.4524 C681.818
N1615 X.4849 Y-.3453 Z-.4553 C684.545
N1620 X.5008 Y-.3218 Z-.4581 C687.273
N1625 X.5155 Y-.2976 Z-.4609 C690.
N1630 X.5291 Y-.2728 Z-.4638 C692.727
N1635 X.5415 Y-.2473 Z-.4666 C695.455
N1640 X.5526 Y-.2212 Z-.4695 C698.182
N1645 X.5625 Y-.1947 Z-.4723 C700.909
N1650 X.5712 Y-.1677 Z-.4751 C703.636
N1655 X.5785 Y-.1403 Z-.478 C706.364
N1660 X.5845 Y-.1127 Z-.4808 C709.091
N1665 X.5892 Y-.0847 Z-.4837 C711.818
N1670 X.5926 Y-.0566 Z-.4865 C714.545
N1675 X.5946 Y-.0283 Z-.4893 C717.273
N1680 X.5953 Y0.0 Z-.4922 C720.
N1685 X.5946 Y.0283 Z-.495 C722.727
N1690 X.5926 Y.0566 Z-.4979 C725.455
N1695 X.5892 Y.0847 Z-.5007 C728.182
N1700 X.5845 Y.1127 Z-.5036 C730.909
N1705 X.5785 Y.1403 Z-.5064 C733.636
N1710 X.5712 Y.1677 Z-.5092 C736.364
N1715 X.5625 Y.1947 Z-.5121 C739.091
N1720 X.5526 Y.2212 Z-.5149 C741.818
N1725 X.5415 Y.2473 Z-.5178 C744.545
N1730 X.5291 Y.2728 Z-.5206 C747.273
N1735 X.5155 Y.2976 Z-.5234 C750.
N1740 X.5008 Y.3218 Z-.5263 C752.727
N1745 X.4849 Y.3453 Z-.5291 C755.455
N1750 X.4679 Y.368 Z-.532 C758.182
N1755 X.4499 Y.3898 Z-.5348 C760.909
N1760 X.4308 Y.4108 Z-.5376 C763.636
N1765 X.4108 Y.4308 Z-.5405 C766.364
N1770 X.3898 Y.4499 Z-.5433 C769.091
N1775 X.368 Y.4679 Z-.5462 C771.818
N1780 X.3453 Y.4849 Z-.549 C774.545
N1785 X.3218 Y.5008 Z-.5518 C777.273
N1790 X.2976 Y.5155 Z-.5547 C780.
N1795 X.2728 Y.5291 Z-.5575 C782.727
N1800 X.2473 Y.5415 Z-.5604 C785.455
N1805 X.2212 Y.5526 Z-.5632 C788.182
N1810 X.1947 Y.5625 Z-.5661 C790.909
N1815 X.1677 Y.5712 Z-.5689 C793.636
N1820 X.1403 Y.5785 Z-.5717 C796.364
N1825 X.1127 Y.5845 Z-.5746 C799.091
N1830 X.0847 Y.5892 Z-.5774 C801.818
N1835 X.0566 Y.5926 Z-.5803 C804.545
N1840 X.0283 Y.5946 Z-.5831 C807.273
N1845 X0.0 Y.5953 Z-.5859 C810.
N1850 X-.0283 Y.5946 Z-.5888 C812.727
N1855 X-.0566 Y.5926 Z-.5916 C815.455
N1860 X-.0847 Y.5892 Z-.5945 C818.182
N1865 X-.1127 Y.5845 Z-.5973 C820.909
N1870 X-.1403 Y.5785 Z-.6001 C823.636
N1875 X-.1677 Y.5712 Z-.603 C826.364
N1880 X-.1947 Y.5625 Z-.6058 C829.091
N1885 X-.2212 Y.5526 Z-.6087 C831.818
N1890 X-.2473 Y.5415 Z-.6115 C834.545
N1895 X-.2728 Y.5291 Z-.6143 C837.273
N1900 X-.2976 Y.5155 Z-.6172 C840.
N1905 X-.3218 Y.5008 Z-.62 C842.727
N1910 X-.3453 Y.4849 Z-.6229 C845.455
N1915 X-.368 Y.4679 Z-.6257 C848.182
N1920 X-.3898 Y.4499 Z-.6286 C850.909
N1925 X-.4108 Y.4308 Z-.6314 C853.636
N1930 X-.4308 Y.4108 Z-.6342 C856.364
N1935 X-.4499 Y.3898 Z-.6371 C859.091
N1940 X-.4679 Y.368 Z-.6399 C861.818
N1945 X-.4849 Y.3453 Z-.6428 C864.545
N1950 X-.5008 Y.3218 Z-.6456 C867.273
N1955 X-.5155 Y.2976 Z-.6484 C870.
N1960 X-.5291 Y.2728 Z-.6513 C872.727
N1965 X-.5415 Y.2473 Z-.6541 C875.455
N1970 X-.5526 Y.2212 Z-.657 C878.182
N1975 X-.5625 Y.1947 Z-.6598 C880.909
N1980 X-.5712 Y.1677 Z-.6626 C883.636
N1985 X-.5785 Y.1403 Z-.6655 C886.364
N1990 X-.5845 Y.1127 Z-.6683 C889.091
N1995 X-.5892 Y.0847 Z-.6712 C891.818
N2000 X-.5926 Y.0566 Z-.674 C894.545
N2005 X-.5946 Y.0283 Z-.6768 C897.273
N2010 X-.5953 Y0.0 Z-.6797 C900.
N2015 X-.5946 Y-.0283 Z-.6825 C902.727
N2020 X-.5926 Y-.0566 Z-.6854 C905.455
N2025 X-.5892 Y-.0847 Z-.6882 C908.182
N2030 X-.5845 Y-.1127 Z-.6911 C910.909
N2035 X-.5785 Y-.1403 Z-.6939 C913.636
N2040 X-.5712 Y-.1677 Z-.6967 C916.364
N2045 X-.5625 Y-.1947 Z-.6996 C919.091
N2050 X-.5526 Y-.2212 Z-.7024 C921.818
N2055 X-.5415 Y-.2473 Z-.7053 C924.545
N2060 X-.5291 Y-.2728 Z-.7081 C927.273
N2065 X-.5155 Y-.2976 Z-.7109 C930.
N2070 X-.5003 Y-.3226 Z-.7139 C932.813
N2075 X-.4839 Y-.3467 Z-.7168 C935.625
N2080 X-.4663 Y-.3701 Z-.7197 C938.438
N2085 X-.4476 Y-.3925 Z-.7227 C941.25
N2090 X-.4278 Y-.414 Z-.7256 C944.063
N2095 X-.4069 Y-.4345 Z-.7285 C946.875
N2100 X-.3851 Y-.4539 Z-.7314 C949.688
N2105 X-.3624 Y-.4723 Z-.7344 C952.5
N2110 X-.3388 Y-.4895 Z-.7373 C955.313
N2115 X-.3143 Y-.5055 Z-.7402 C958.125
N2120 X-.2892 Y-.5203 Z-.7432 C960.938
N2125 X-.2633 Y-.5339 Z-.7461 C963.75
N2130 X-.2368 Y-.5462 Z-.749 C966.563
N2135 X-.2097 Y-.5571 Z-.752 C969.375
N2140 X-.1821 Y-.5667 Z-.7549 C972.188
N2145 X-.1541 Y-.575 Z-.7578 C975.
N2150 X-.1257 Y-.5819 Z-.7607 C977.813
N2155 X-.097 Y-.5873 Z-.7637 C980.625
N2160 X-.068 Y-.5914 Z-.7666 C983.438
N2165 X-.0389 Y-.594 Z-.7695 C986.25
N2170 X-.0097 Y-.5952 Z-.7725 C989.063
N2175 X.0195 Y-.595 Z-.7754 C991.875
N2180 X.0486 Y-.5933 Z-.7783 C994.688
N2185 X.0777 Y-.5902 Z-.7812 C997.5
N2190 X.1066 Y-.5857 Z-.7842 C1000.312
N2195 X.1352 Y-.5797 Z-.7871 C1003.125
N2200 X.1635 Y-.5724 Z-.79 C1005.937
N2205 X.1913 Y-.5637 Z-.793 C1008.75
N2210 X.2188 Y-.5536 Z-.7959 C1011.562
N2215 X.2457 Y-.5422 Z-.7988 C1014.375
N2220 X.272 Y-.5295 Z-.8018 C1017.187
N2225 X.2976 Y-.5155 Z-.8047 C1020.
N2230 X.3218 Y-.5008 Z-.8075 C1022.727
N2235 X.3453 Y-.4849 Z-.8104 C1025.455
N2240 X.368 Y-.4679 Z-.8132 C1028.182
N2245 X.3898 Y-.4499 Z-.8161 C1030.909
N2250 X.4108 Y-.4308 Z-.8189 C1033.636
N2255 X.4308 Y-.4108 Z-.8217 C1036.364
N2260 X.4499 Y-.3898 Z-.8246 C1039.091
N2265 X.4679 Y-.368 Z-.8274 C1041.818
N2270 X.4849 Y-.3453 Z-.8303 C1044.545
N2275 X.5008 Y-.3218 Z-.8331 C1047.273
N2280 X.5155 Y-.2976 Z-.8359 C1050.
N2285 X.5291 Y-.2728 Z-.8388 C1052.727
N2290 X.5415 Y-.2473 Z-.8416 C1055.455
N2295 X.5526 Y-.2212 Z-.8445 C1058.182
N2300 X.5625 Y-.1947 Z-.8473 C1060.909
N2305 X.5712 Y-.1677 Z-.8501 C1063.636
N2310 X.5785 Y-.1403 Z-.853 C1066.364
N2315 X.5845 Y-.1127 Z-.8558 C1069.091
N2320 X.5892 Y-.0847 Z-.8587 C1071.818
N2325 X.5926 Y-.0566 Z-.8615 C1074.545
N2330 X.5946 Y-.0283 Z-.8643 C1077.273
N2335 X.5953 Y0.0 Z-.8672 C1080.
N2340 X.5946 Y.0283 Z-.87 C1082.727
N2345 X.5926 Y.0566 Z-.8729 C1085.455
N2350 X.5892 Y.0847 Z-.8757 C1088.182
N2355 X.5845 Y.1127 Z-.8786 C1090.909
N2360 X.5785 Y.1403 Z-.8814 C1093.636
N2365 X.5712 Y.1677 Z-.8842 C1096.364
N2370 X.5625 Y.1947 Z-.8871 C1099.091
N2375 X.5526 Y.2212 Z-.8899 C1101.818
N2380 X.5415 Y.2473 Z-.8928 C1104.545
N2385 X.5291 Y.2728 Z-.8956 C1107.273
N2390 X.5155 Y.2976 Z-.8984 C1110.
N2395 X.5008 Y.3218 Z-.9013 C1112.727
N2400 X.4849 Y.3453 Z-.9041 C1115.455
N2405 X.4679 Y.368 Z-.907 C1118.182
N2410 X.4499 Y.3898 Z-.9098 C1120.909
N2415 X.4308 Y.4108 Z-.9126 C1123.636
N2420 X.4108 Y.4308 Z-.9155 C1126.364
N2425 X.3898 Y.4499 Z-.9183 C1129.091
N2430 X.368 Y.4679 Z-.9212 C1131.818
N2435 X.3453 Y.4849 Z-.924 C1134.545
N2440 X.3218 Y.5008 Z-.9268 C1137.273
N2445 X.2976 Y.5155 Z-.9297 C1140.
N2450 X.2728 Y.5291 Z-.9325 C1142.727
N2455 X.2473 Y.5415 Z-.9354 C1145.455
N2460 X.2212 Y.5526 Z-.9382 C1148.182
N2465 X.1947 Y.5625 Z-.9411 C1150.909
N2470 X.1677 Y.5712 Z-.9439 C1153.636
N2475 X.1403 Y.5785 Z-.9467 C1156.364
N2480 X.1127 Y.5845 Z-.9496 C1159.091
N2485 X.0847 Y.5892 Z-.9524 C1161.818
N2490 X.0566 Y.5926 Z-.9553 C1164.545
N2495 X.0283 Y.5946 Z-.9581 C1167.273
N2500 X0.0 Y.5953 Z-.9609 C1170.
N2505 X-.0283 Y.5946 Z-.9638 C1172.727
N2510 X-.0566 Y.5926 Z-.9666 C1175.455
N2515 X-.0847 Y.5892 Z-.9695 C1178.182
N2520 X-.1127 Y.5845 Z-.9723 C1180.909
N2525 X-.1403 Y.5785 Z-.9751 C1183.636
N2530 X-.1677 Y.5712 Z-.978 C1186.364
N2535 X-.1947 Y.5625 Z-.9808 C1189.091
N2540 X-.2212 Y.5526 Z-.9837 C1191.818
N2545 X-.2473 Y.5415 Z-.9865 C1194.545
N2550 X-.2728 Y.5291 Z-.9893 C1197.273
N2555 X-.2976 Y.5155 Z-.9922 C1200.
N2560 X-.323 Y.5 Z-.9952 C1202.857
N2565 X-.3475 Y.4833 Z-.9981 C1205.714
N2570 X-.3711 Y.4654 Z-1.0011 C1208.571
N2575 X-.3939 Y.4463 Z-1.0041 C1211.429
N2580 X-.4156 Y.4261 Z-1.0071 C1214.286
N2585 X-.4364 Y.4049 Z-1.01 C1217.143
N2590 X-.456 Y.3826 Z-1.013 C1220.
N2595 X-.4745 Y.3594 Z-1.016 C1222.857
N2600 X-.4918 Y.3353 Z-1.019 C1225.714
N2605 X-.5079 Y.3104 Z-1.0219 C1228.571
N2610 X-.5228 Y.2847 Z-1.0249 C1231.429
N2615 X-.5363 Y.2583 Z-1.0279 C1234.286
N2620 X-.5485 Y.2312 Z-1.0309 C1237.143
N2625 X-.5594 Y.2036 Z-1.0339 C1240.
N2630 X-.5688 Y.1755 Z-1.0368 C1242.857
N2635 X-.5769 Y.1469 Z-1.0398 C1245.714
N2640 X-.5835 Y.118 Z-1.0428 C1248.571
N2645 X-.5886 Y.0887 Z-1.0458 C1251.429
N2650 X-.5923 Y.0593 Z-1.0487 C1254.286
N2655 X-.5945 Y.0297 Z-1.0517 C1257.143
N2660 X-.5953 Y0.0 Z-1.0547 C1260.
N2665 X-.5945 Y-.0297 Z-1.0577 C1262.857
N2670 X-.5923 Y-.0593 Z-1.0606 C1265.714
N2675 X-.5886 Y-.0887 Z-1.0636 C1268.571
N2680 X-.5835 Y-.118 Z-1.0666 C1271.429
N2685 X-.5769 Y-.1469 Z-1.0696 C1274.286
N2690 X-.5688 Y-.1755 Z-1.0725 C1277.143
N2695 X-.5594 Y-.2036 Z-1.0755 C1280.
N2700 X-.5485 Y-.2312 Z-1.0785 C1282.857
N2705 X-.5363 Y-.2583 Z-1.0815 C1285.714
N2710 X-.5228 Y-.2847 Z-1.0844 C1288.571
N2715 X-.5079 Y-.3104 Z-1.0874 C1291.429
N2720 X-.4918 Y-.3353 Z-1.0904 C1294.286
N2725 X-.4745 Y-.3594 Z-1.0934 C1297.143
N2730 X-.456 Y-.3826 Z-1.0964 C1300.
N2735 X-.4364 Y-.4049 Z-1.0993 C1302.857
N2740 X-.4156 Y-.4261 Z-1.1023 C1305.714
N2745 X-.3939 Y-.4463 Z-1.1053 C1308.571
N2750 X-.3711 Y-.4654 Z-1.1083 C1311.429
N2755 X-.3475 Y-.4833 Z-1.1112 C1314.286
N2760 X-.323 Y-.5 Z-1.1142 C1317.143
N2765 X-.2976 Y-.5155 Z-1.1172 C1320.
N2770 X-.2716 Y-.5297 Z-1.1202 C1322.857
N2775 X-.2448 Y-.5426 Z-1.1231 C1325.714
N2780 X-.2175 Y-.5541 Z-1.1261 C1328.571
N2785 X-.1896 Y-.5643 Z-1.1291 C1331.429
N2790 X-.1612 Y-.573 Z-1.1321 C1334.286
N2795 X-.1325 Y-.5804 Z-1.135 C1337.143
N2800 X-.1034 Y-.5862 Z-1.138 C1340.
N2805 X-.074 Y-.5907 Z-1.141 C1342.857
N2810 X-.0445 Y-.5936 Z-1.144 C1345.714
N2815 X-.0148 Y-.5951 Z-1.1469 C1348.571
N2820 X.0148 Z-1.1499 C1351.429
N2825 X.0445 Y-.5936 Z-1.1529 C1354.286
N2830 X.074 Y-.5907 Z-1.1559 C1357.143
N2835 X.1034 Y-.5862 Z-1.1589 C1360.
N2840 X.1325 Y-.5804 Z-1.1618 C1362.857
N2845 X.1612 Y-.573 Z-1.1648 C1365.714
N2850 X.1896 Y-.5643 Z-1.1678 C1368.571
N2855 X.2175 Y-.5541 Z-1.1708 C1371.429
N2860 X.2448 Y-.5426 Z-1.1737 C1374.286
N2865 X.2716 Y-.5297 Z-1.1767 C1377.143
N2870 X.2976 Y-.5155 Z-1.1797 C1380.
N2875 X.3218 Y-.5008 Z-1.1825 C1382.727
N2880 X.3453 Y-.4849 Z-1.1854 C1385.455
N2885 X.368 Y-.4679 Z-1.1882 C1388.182
N2890 X.3898 Y-.4499 Z-1.1911 C1390.909
N2895 X.4108 Y-.4308 Z-1.1939 C1393.636
N2900 X.4308 Y-.4108 Z-1.1967 C1396.364
N2905 X.4499 Y-.3898 Z-1.1996 C1399.091
N2910 X.4679 Y-.368 Z-1.2024 C1401.818
N2915 X.4849 Y-.3453 Z-1.2053 C1404.545
N2920 X.5008 Y-.3218 Z-1.2081 C1407.273
N2925 X.5155 Y-.2976 Z-1.2109 C1410.
N2930 X.5291 Y-.2728 Z-1.2138 C1412.727
N2935 X.5415 Y-.2473 Z-1.2166 C1415.455
N2940 X.5526 Y-.2212 Z-1.2195 C1418.182
N2945 X.5625 Y-.1947 Z-1.2223 C1420.909
N2950 X.5712 Y-.1677 Z-1.2251 C1423.636
N2955 X.5785 Y-.1403 Z-1.228 C1426.364
N2960 X.5845 Y-.1127 Z-1.2308 C1429.091
N2965 X.5892 Y-.0847 Z-1.2337 C1431.818
N2970 X.5926 Y-.0566 Z-1.2365 C1434.545
N2975 X.5946 Y-.0283 Z-1.2393 C1437.273
N2980 X.5953 Y0.0 Z-1.2422 C1440.
N2985 X.5945 Y.0298 Z-1.2452 C1442.865
N2990 X.5923 Y.0594 Z-1.2482 C1445.731
N2995 X.5886 Y.089 Z-1.2511 C1448.596
N3000 X.5834 Y.1183 Z-1.2541 C1451.462
N3005 X.5768 Y.1473 Z-1.2571 C1454.327
N3010 X.5687 Y.176 Z-1.2601 C1457.193
N3015 X.5592 Y.2042 Z-1.2631 C1460.058
N3020 X.5483 Y.2319 Z-1.2661 C1462.924
N3025 X.536 Y.259 Z-1.2691 C1465.789
N3030 X.5224 Y.2855 Z-1.272 C1468.655
N3035 X.5074 Y.3112 Z-1.275 C1471.52
N3040 X.4913 Y.3362 Z-1.278 C1474.386
N3045 X.4738 Y.3603 Z-1.281 C1477.251
N3050 X.4552 Y.3836 Z-1.284 C1480.117
N3055 X.4355 Y.4058 Z-1.287 C1482.982
N3060 X.4147 Y.4271 Z-1.2899 C1485.847
N3065 X.3928 Y.4473 Z-1.2929 C1488.713
N3070 X.3699 Y.4664 Z-1.2959 C1491.578
N3075 X.3462 Y.4843 Z-1.2989 C1494.444
N3080 X.3215 Y.501 Z-1.3019 C1497.309
N3085 X.2961 Y.5164 Z-1.3049 C1500.175
N3090 X.2699 Y.5306 Z-1.3079 C1503.04
N3095 X.243 Y.5434 Z-1.3108 C1505.906
N3100 X.2155 Y.5549 Z-1.3138 C1508.771
N3105 X.1875 Y.565 Z-1.3168 C1511.637
N3110 X.1591 Y.5736 Z-1.3198 C1514.502
N3115 X.1302 Y.5809 Z-1.3228 C1517.368
N3120 X.101 Y.5866 Z-1.3258 C1520.233
N3125 X.0715 Y.591 Z-1.3287 C1523.099
N3130 X.0419 Y.5938 Z-1.3317 C1525.964
N3135 X.0122 Y.5952 Z-1.3347 C1528.829
N3140 X-.0176 Y.595 Z-1.3377 C1531.695
N3145 X-.0473 Y.5934 Z-1.3407 C1534.56
N3150 X-.0769 Y.5903 Z-1.3437 C1537.426
N3155 X-.1063 Y.5857 Z-1.3467 C1540.291
N3160 X-.1355 Y.5797 Z-1.3496 C1543.157
N3165 X-.1643 Y.5722 Z-1.3526 C1546.022
N3170 X-.1927 Y.5632 Z-1.3556 C1548.888
N3175 X-.2206 Y.5529 Z-1.3586 C1551.753
N3180 X-.248 Y.5412 Z-1.3616 C1554.619
N3185 X-.2747 Y.5281 Z-1.3646 C1557.484
N3190 X-.3008 Y.5137 Z-1.3676 C1560.35
N3195 X-.3261 Y.498 Z-1.3705 C1563.215
N3200 X-.3506 Y.4811 Z-1.3735 C1566.081
N3205 X-.3742 Y.463 Z-1.3765 C1568.946
N3210 X-.3969 Y.4437 Z-1.3795 C1571.811
N3215 X-.4185 Y.4233 Z-1.3825 C1574.677
N3220 X-.4392 Y.4018 Z-1.3855 C1577.542
N3225 X-.4587 Y.3794 Z-1.3884 C1580.408
N3230 X-.4771 Y.356 Z-1.3914 C1583.273
N3235 X-.4943 Y.3317 Z-1.3944 C1586.139
N3240 X-.5103 Y.3066 Z-1.3974 C1589.004
N3245 X-.525 Y.2807 Z-1.4004 C1591.87
N3250 X-.5383 Y.2541 Z-1.4034 C1594.735
N3255 X-.5504 Y.2268 Z-1.4064 C1597.601
N3260 X-.561 Y.199 Z-1.4093 C1600.466
N3265 X-.5703 Y.1707 Z-1.4123 C1603.332
N3270 X-.5781 Y.142 Z-1.4153 C1606.197
N3275 X-.5845 Y.1129 Z-1.4183 C1609.063
N3280 X-.5894 Y.0836 Z-1.4213 C1611.928
N3285 X-.5928 Y.054 Z-1.4243 C1614.794
N3290 X-.5948 Y.0243 Z-1.4272 C1617.659
N3295 X-.5953 Y-.0054 Z-1.4302 C1620.524
N3300 X-.5942 Y-.0352 Z-1.4332 C1623.39
N3305 X-.5917 Y-.0649 Z-1.4362 C1626.255
N3310 X-.5877 Y-.0944 Z-1.4392 C1629.121
N3315 X-.5823 Y-.1236 Z-1.4422 C1631.986
N3320 X-.5754 Y-.1526 Z-1.4452 C1634.852
N3325 X-.567 Y-.1812 Z-1.4481 C1637.717
N3330 X-.5573 Y-.2093 Z-1.4511 C1640.583
N3335 X-.5461 Y-.2369 Z-1.4541 C1643.448
N3340 X-.5336 Y-.2639 Z-1.4571 C1646.314
N3345 X-.5197 Y-.2902 Z-1.4601 C1649.179
N3350 X-.5046 Y-.3158 Z-1.4631 C1652.045
N3355 X-.4882 Y-.3407 Z-1.4661 C1654.91
N3360 X-.4705 Y-.3646 Z-1.469 C1657.776
N3365 X-.4517 Y-.3877 Z-1.472 C1660.641
N3370 X-.4318 Y-.4098 Z-1.475 C1663.506
N3375 X-.4107 Y-.4309 Z-1.478 C1666.372
N3380 X-.3887 Y-.4509 Z-1.481 C1669.237
N3385 X-.3656 Y-.4697 Z-1.484 C1672.103
N3390 X-.3417 Y-.4874 Z-1.4869 C1674.968
N3395 X-.3169 Y-.5039 Z-1.4899 C1677.834
N3400 X-.2913 Y-.5191 Z-1.4929 C1680.699
N3405 X-.265 Y-.533 Z-1.4959 C1683.565
N3410 X-.238 Y-.5456 Z-1.4989 C1686.43
N3415 X-.2105 Y-.5568 Z-1.5019 C1689.296
N3420 X-.1824 Y-.5667 Z-1.5049 C1692.161
N3425 X-.1538 Y-.5751 Z-1.5078 C1695.027
N3430 X-.1249 Y-.582 Z-1.5108 C1697.892
N3435 X-.0956 Y-.5875 Z-1.5138 C1700.758
N3440 X-.0661 Y-.5916 Z-1.5168 C1703.623
N3445 X-.0365 Y-.5942 Z-1.5198 C1706.488
N3450 X-.0067 Y-.5952 Z-1.5228 C1709.354
N3455 X.0231 Y-.5948 Z-1.5257 C1712.219
N3460 X.0528 Y-.5929 Z-1.5287 C1715.085
N3465 X.0823 Y-.5896 Z-1.5317 C1717.95
N3470 X.1117 Y-.5847 Z-1.5347 C1720.816
N3475 X.1408 Y-.5784 Z-1.5377 C1723.681
N3480 X.1695 Y-.5706 Z-1.5407 C1726.547
N3485 X.1978 Y-.5614 Z-1.5437 C1729.412
N3490 X.2257 Y-.5508 Z-1.5466 C1732.278
N3495 X.2529 Y-.5389 Z-1.5496 C1735.143
N3500 X.2795 Y-.5256 Z-1.5526 C1738.009
N3505 X.3055 Y-.5109 Z-1.5556 C1740.874
N3510 X.3306 Y-.495 Z-1.5586 C1743.74
N3515 X.355 Y-.4779 Z-1.5616 C1746.605
N3520 X.3784 Y-.4595 Z-1.5646 C1749.47
N3525 X.4005 Y-.4404 C1752.278
N3530 X.4215 Y-.4203 C1755.085
N3535 X.4416 Y-.3991 C1757.892
N3540 X.4606 Y-.377 C1760.699
N3545 X.4786 Y-.354 C1763.506
N3550 X.4953 Y-.3302 C1766.314
N3555 X.5109 Y-.3055 C1769.121
N3560 X.5252 Y-.2801 C1771.928
N3565 X.5383 Y-.2541 C1774.735
N3570 X.5501 Y-.2274 C1777.542
N3575 X.5606 Y-.2002 C1780.35
N3580 X.5697 Y-.1725 C1783.157
N3585 X.5775 Y-.1444 C1785.964
N3590 X.5839 Y-.1159 C1788.771
N3595 X.5889 Y-.0872 C1791.578
N3600 X.5924 Y-.0582 C1794.386
N3605 X.5946 Y-.0292 C1797.193
N3610 X.5953 Y0.0 C1800.
N3615 X.5945 Y.0298 C1802.865
N3620 X.5923 Y.0594 C1805.731
N3625 X.5886 Y.089 C1808.596
N3630 X.5834 Y.1183 C1811.462
N3635 X.5768 Y.1473 C1814.327
N3640 X.5687 Y.176 C1817.193
N3645 X.5592 Y.2042 C1820.058
N3650 X.5483 Y.2319 C1822.924
N3655 X.536 Y.259 C1825.789
N3660 X.5224 Y.2855 C1828.655
N3665 X.5074 Y.3112 C1831.52
N3670 X.4913 Y.3362 C1834.386
N3675 X.4738 Y.3603 C1837.251
N3680 X.4552 Y.3836 C1840.117
N3685 X.4355 Y.4058 C1842.982
N3690 X.4147 Y.4271 C1845.847
N3695 X.3928 Y.4473 C1848.713
N3700 X.3699 Y.4664 C1851.578
N3705 X.3462 Y.4843 C1854.444
N3710 X.3215 Y.501 C1857.309
N3715 X.2961 Y.5164 C1860.175
N3720 X.2699 Y.5306 C1863.04
N3725 X.243 Y.5434 C1865.906
N3730 X.2155 Y.5549 C1868.771
N3735 X.1875 Y.565 C1871.637
N3740 X.1591 Y.5736 C1874.502
N3745 X.1302 Y.5809 C1877.368
N3750 X.101 Y.5866 C1880.233
N3755 X.0715 Y.591 C1883.099
N3760 X.0419 Y.5938 C1885.964
N3765 X.0122 Y.5952 C1888.829
N3770 X-.0176 Y.595 C1891.695
N3775 X-.0473 Y.5934 C1894.56
N3780 X-.0769 Y.5903 C1897.426
N3785 X-.1063 Y.5857 C1900.291
N3790 X-.1355 Y.5797 C1903.157
N3795 X-.1643 Y.5722 C1906.022
N3800 X-.1927 Y.5632 C1908.888
N3805 X-.2206 Y.5529 C1911.753
N3810 X-.248 Y.5412 C1914.619
N3815 X-.2747 Y.5281 C1917.484
N3820 X-.3008 Y.5137 C1920.35
N3825 X-.3261 Y.498 C1923.215
N3830 X-.3506 Y.4811 C1926.081
N3835 X-.3742 Y.463 C1928.946
N3840 X-.3969 Y.4437 C1931.811
N3845 X-.4185 Y.4233 C1934.677
N3850 X-.4392 Y.4018 C1937.542
N3855 X-.4587 Y.3794 C1940.408
N3860 X-.4771 Y.356 C1943.273
N3865 X-.4943 Y.3317 C1946.139
N3870 X-.5103 Y.3066 C1949.004
N3875 X-.525 Y.2807 C1951.87
N3880 X-.5383 Y.2541 C1954.735
N3885 X-.5504 Y.2268 C1957.601
N3890 X-.561 Y.199 C1960.466
N3895 X-.5703 Y.1707 C1963.332
N3900 X-.5781 Y.142 C1966.197
N3905 X-.5845 Y.1129 C1969.063
N3910 X-.5894 Y.0836 C1971.928
N3915 X-.5928 Y.054 C1974.794
N3920 X-.5948 Y.0243 C1977.659
N3925 X-.5953 Y-.0054 C1980.524
N3930 X-.5942 Y-.0352 C1983.39
N3935 X-.5917 Y-.0649 C1986.255
N3940 X-.5877 Y-.0944 C1989.121
N3945 X-.5823 Y-.1236 C1991.986
N3950 X-.5754 Y-.1526 C1994.852
N3955 X-.567 Y-.1812 C1997.717
N3960 X-.5573 Y-.2093 C2000.583
N3965 X-.5461 Y-.2369 C2003.448
N3970 X-.5336 Y-.2639 C2006.314
N3975 X-.5197 Y-.2902 C2009.179
N3980 X-.5046 Y-.3158 C2012.045
N3985 X-.4882 Y-.3407 C2014.91
N3990 X-.4705 Y-.3646 C2017.776
N3995 X-.4517 Y-.3877 C2020.641
N4000 X-.4318 Y-.4098 C2023.506
N4005 X-.4107 Y-.4309 C2026.372
N4010 X-.3887 Y-.4509 C2029.237
N4015 X-.3656 Y-.4697 C2032.103
N4020 X-.3417 Y-.4874 C2034.968
N4025 X-.3169 Y-.5039 C2037.834
N4030 X-.2913 Y-.5191 C2040.699
N4035 X-.265 Y-.533 C2043.565
N4040 X-.238 Y-.5456 C2046.43
N4045 X-.2105 Y-.5568 C2049.296
N4050 X-.1824 Y-.5667 C2052.161
N4055 X-.1538 Y-.5751 C2055.027
N4060 X-.1249 Y-.582 C2057.892
N4065 X-.0956 Y-.5875 C2060.758
N4070 X-.0661 Y-.5916 C2063.623
N4075 X-.0365 Y-.5942 C2066.488
N4080 X-.0067 Y-.5952 C2069.354
N4085 X.0231 Y-.5948 C2072.219
N4090 X.0528 Y-.5929 C2075.085
N4095 X.0823 Y-.5896 C2077.95
N4100 X.1117 Y-.5847 C2080.816
N4105 X.1408 Y-.5784 C2083.681
N4110 X.1695 Y-.5706 C2086.547
N4115 X.1978 Y-.5614 C2089.412
N4120 X.2257 Y-.5508 C2092.278
N4125 X.2529 Y-.5389 C2095.143
N4130 X.2795 Y-.5256 C2098.009
N4135 X.3055 Y-.5109 C2100.874
N4140 X.3306 Y-.495 C2103.74
N4145 X.355 Y-.4779 C2106.605
N4150 X.3784 Y-.4595 C2109.47
N4155 X.4535 Y-.5507
N4160 G00 X.8789 Y-1.0674
N4165 G49
N4170 G255
N4175 M09
 
( *** TOOL CHANGE: T18: MILL_0.75_FINISH *** )
 
( OPER: VARIABLE_CONTOUR )
N4180 G53 G00 Z0.0
N4185 G53 G00 X-29.9793 Y-10.8101
N4190 T18 M06
N4195 T25
N4200 M01
N4205 G53 G00 Z0.0
N4210 S3056 M03
N4215 G17 G54 G90
N4220 G00 B0.0 C2109.47
N4225 G234 H18
N4230 G90 X0.0 Y0.0 Z.225
N4235 G01 Z0.0 F9.8 M08
N4240 X.0012 Y.0037 B.45 C2232.
N4245 X.0046 Y.0064 Z-.0001 B.9 C2214.
N4250 X.0095 Y.0069 B1.35 C2196.
N4255 X.0149 Y.0049 Z-.0002 B1.8 C2178.
N4260 X.0196 Y0.0 Z-.0004 B2.25 C2160.
N4265 X.0224 Y-.0073 Z-.0006 B2.7 C2142.
N4270 X.0222 Y-.0161 Z-.0008 B3.15 C2124.
N4275 X.0185 Y-.0254 Z-.001 B3.6 C2106.
N4280 X.0109 Y-.0336 Z-.0012 B4.05 C2088.
N4285 X0.0 Y-.0392 Z-.0015 B4.5 C2070.
N4290 X-.0133 Y-.041 Z-.0019 B4.95 C2052.
N4295 X-.0277 Y-.0381 Z-.0022 B5.4 C2034.
N4300 X-.0412 Y-.03 Z-.0026 B5.85 C2016.
N4305 X-.0522 Y-.017 Z-.003 B6.3 C1998.
N4310 X-.0588 Y0.0 Z-.0035 B6.75 C1980.
N4315 X-.0596 Y.0194 Z-.0039 B7.2 C1962.
N4320 X-.0538 Y.0391 Z-.0045 B7.65 C1944.
N4325 X-.0414 Y.057 Z-.005 B8.1 C1926.
N4330 X-.023 Y.0707 Z-.0056 B8.55 C1908.
N4335 X0.0 Y.0782 Z-.0062 B9. C1890.
N4340 X.0254 Y.0781 Z-.0068 B9.45 C1872.
N4345 X.0505 Y.0695 Z-.0074 B9.9 C1854.
N4350 X.0727 Y.0528 Z-.0081 B10.35 C1836.
N4355 X.0891 Y.029 Z-.0089 B10.8 C1818.
N4360 X.0944 Y.015 Z-.0092 B11.025 C1809.
N4365 X.0975 Y0.0 Z-.0096 B11.25 C1800.
N4370 X.0982 Y-.0156 Z-.01 B11.475 C1791.
N4375 X.0964 Y-.0313 Z-.0104 B11.7 C1782.
N4380 X.0921 Y-.0469 Z-.0108 B11.925 C1773.
N4385 X.0851 Y-.0619 Z-.0112 B12.15 C1764.
N4390 X.0758 Y-.0758 Z-.0116 B12.375 C1755.
N4395 X.0641 Y-.0882 Z-.012 B12.6 C1746.
N4400 X.0504 Y-.0989 Z-.0125 B12.825 C1737.
N4405 X.0349 Y-.1074 Z-.0129 B13.05 C1728.
N4410 X.018 Y-.1134 Z-.0134 B13.275 C1719.
N4415 X0.0 Y-.1167 Z-.0138 B13.5 C1710.
N4420 X-.0186 Y-.1172 Z-.0143 B13.725 C1701.
N4425 X-.0372 Y-.1146 Z-.0147 B13.95 C1692.
N4430 X-.0556 Y-.1091 Z-.0152 B14.175 C1683.
N4435 X-.0731 Y-.1006 Z-.0157 B14.4 C1674.
N4440 X-.0893 Y-.0893 Z-.0162 B14.625 C1665.
N4445 X-.1037 Y-.0753 Z-.0167 B14.85 C1656.
N4450 X-.1159 Y-.059 Z-.0172 B15.075 C1647.
N4455 X-.1255 Y-.0408 Z-.0177 B15.3 C1638.
N4460 X-.1322 Y-.0209 Z-.0182 B15.525 C1629.
N4465 X-.1357 Y0.0 Z-.0188 B15.75 C1620.
N4470 X-.1359 Y.0215 Z-.0193 B15.975 C1611.
N4475 X-.1327 Y.0431 Z-.0199 B16.2 C1602.
N4480 X-.126 Y.0642 Z-.0204 B16.425 C1593.
N4485 X-.1159 Y.0842 Z-.021 B16.65 C1584.
N4490 X-.1026 Y.1026 Z-.0215 B16.875 C1575.
N4495 X-.0864 Y.1189 Z-.0221 B17.1 C1566.
N4500 X-.0676 Y.1327 Z-.0227 B17.325 C1557.
N4505 X-.0466 Y.1434 Z-.0233 B17.55 C1548.
N4510 X-.0239 Y.1508 Z-.0239 B17.775 C1539.
N4515 X0.0 Y.1545 Z-.0245 B18. C1530.
N4520 X.0245 Y.1544 Z-.0251 B18.225 C1521.
N4525 X.0489 Y.1505 Z-.0257 B18.45 C1512.
N4530 X.0727 Y.1427 Z-.0263 B18.675 C1503.
N4535 X.0952 Y.131 Z-.027 B18.9 C1494.
N4540 X.1158 Y.1158 Z-.0276 B19.125 C1485.
N4545 X.134 Y.0974 Z-.0282 B19.35 C1476.
N4550 X.1493 Y.0761 Z-.0289 B19.575 C1467.
N4555 X.1611 Y.0523 Z-.0296 B19.8 C1458.
N4560 X.1691 Y.0268 Z-.0302 B20.025 C1449.
N4565 X.1731 Y0.0 Z-.0309 B20.25 C1440.
N4570 X.1727 Y-.0274 Z-.0316 B20.475 C1431.
N4575 X.1681 Y-.0546 Z-.0323 B20.7 C1422.
N4580 X.1591 Y-.0811 Z-.033 B20.925 C1413.
N4585 X.146 Y-.106 Z-.0337 B21.15 C1404.
N4590 X.1289 Y-.1289 Z-.0344 B21.375 C1395.
N4595 X.1082 Y-.1489 Z-.0351 B21.6 C1386.
N4600 X.0844 Y-.1656 Z-.0358 B21.825 C1377.
N4605 X.058 Y-.1785 Z-.0366 B22.05 C1368.
N4610 X.0296 Y-.1872 Z-.0373 B22.275 C1359.
N4615 X0.0 Y-.1913 Z-.0381 B22.5 C1350.
N4620 X-.0302 Y-.1908 Z-.0388 B22.725 C1341.
N4625 X-.0602 Y-.1854 Z-.0396 B22.95 C1332.
N4630 X-.0893 Y-.1753 Z-.0403 B23.175 C1323.
N4635 X-.1167 Y-.1606 Z-.0411 B23.4 C1314.
N4640 X-.1417 Y-.1417 Z-.0419 B23.625 C1305.
N4645 X-.1636 Y-.1188 Z-.0427 B23.85 C1296.
N4650 X-.1817 Y-.0926 Z-.0435 B24.075 C1287.
N4655 X-.1957 Y-.0636 Z-.0443 B24.3 C1278.
N4660 X-.205 Y-.0325 Z-.0451 B24.525 C1269.
N4665 X-.2093 Y0.0 Z-.0459 B24.75 C1260.
N4670 X-.2085 Y.033 Z-.0468 B24.975 C1251.
N4675 X-.2025 Y.0658 Z-.0476 B25.2 C1242.
N4680 X-.1913 Y.0975 Z-.0484 B25.425 C1233.
N4685 X-.1751 Y.1272 Z-.0493 B25.65 C1224.
N4690 X-.1543 Y.1543 Z-.0501 B25.875 C1215.
N4695 X-.1293 Y.178 Z-.051 B26.1 C1206.
N4700 X-.1007 Y.1976 Z-.0519 B26.325 C1197.
N4705 X-.0691 Y.2126 Z-.0527 B26.55 C1188.
N4710 X-.0352 Y.2225 Z-.0536 B26.775 C1179.
N4715 X0.0 Y.227 Z-.0545 B27. C1170.
N4720 X.0358 Y.2259 Z-.0554 B27.225 C1161.
N4725 X.0712 Y.2192 Z-.0563 B27.45 C1152.
N4730 X.1054 Y.2069 Z-.0572 B27.675 C1143.
N4735 X.1375 Y.1893 Z-.0581 B27.9 C1134.
N4740 X.1667 Y.1667 Z-.059 B28.125 C1125.
N4745 X.1921 Y.1396 Z-.06 B28.35 C1116.
N4750 X.2131 Y.1086 Z-.0609 B28.575 C1107.
N4755 X.2291 Y.0744 Z-.0618 B28.8 C1098.
N4760 X.2396 Y.038 Z-.0628 B29.025 C1089.
N4765 X.2443 Y0.0 Z-.0638 B29.25 C1080.
N4770 X.243 Y-.0385 Z-.0647 B29.475 C1071.
N4775 X.2356 Y-.0766 Z-.0657 B29.7 C1062.
N4780 X.2222 Y-.1132 Z-.0667 B29.925 C1053.
N4785 X.2032 Y-.1476 Z-.0676 B30.15 C1044.
N4790 X.1788 Y-.1788 Z-.0686 B30.375 C1035.
N4795 X.1496 Y-.2059 Z-.0696 B30.6 C1026.
N4800 X.1163 Y-.2283 Z-.0706 B30.825 C1017.
N4805 X.0797 Y-.2453 Z-.0716 B31.05 C1008.
N4810 X.0406 Y-.2564 Z-.0727 B31.275 C999.
N4815 X0.0 Y-.2612 Z-.0738 B31.5 C990.
N4820 X-.0411 Y-.2596 Z-.0749 B31.725 C981.
N4825 X-.0818 Y-.2516 Z-.0758 B31.95 C972.
N4830 X-.1209 Y-.2372 Z-.0768 B32.175 C963.
N4835 X-.1575 Y-.2167 Z-.0778 B32.4 C954.
N4840 X-.1906 Y-.1906 Z-.0789 B32.625 C945.
N4845 X-.2194 Y-.1594 Z-.08 B32.85 C936.
N4850 X-.2431 Y-.1239 Z-.081 B33.075 C927.
N4855 X-.2611 Y-.0848 Z-.0821 B33.3 C918.
N4860 X-.2727 Y-.0432 Z-.0833 B33.525 C909.
N4865 X-.2773 Y0.0 Z-.085 B33.75 C900.
N4870 X-.2753 Y.0436 Z-.0863 B33.975 C891.
N4875 X-.2669 Y.0867 Z-.087 B34.2 C882.
N4880 X-.2518 Y.1283 Z-.0876 B34.425 C873.
N4885 X-.23 Y.1671 Z-.0887 B34.65 C864.
N4890 X-.2022 Y.2022 Z-.0898 B34.875 C855.
N4895 X-.169 Y.2326 Z-.0909 B35.1 C846.
N4900 X-.1313 Y.2576 Z-.0921 B35.325 C837.
N4905 X-.0898 Y.2765 Z-.0932 B35.55 C828.
N4910 X-.0457 Y.2883 Z-.0949 B35.775 C819.
N4915 X0.0 Y.2925 Z-.0974 B36. C810.
N4920 X.046 Y.2902 Z-.0989 B36.225 C801.
N4925 X.0914 Y.2814 Z-.0994 B36.45 C792.
N4930 X.1354 Y.2658 Z-.0995 B36.675 C783.
N4935 X.1765 Y.2429 Z-.1002 B36.9 C774.
N4940 X.2134 Y.2134 Z-.1013 B37.125 C765.
N4945 X.2454 Y.1783 Z-.1025 B37.35 C756.
N4950 X.2717 Y.1384 Z-.1037 B37.575 C747.
N4955 X.2915 Y.0947 Z-.1049 B37.8 C738.
N4960 X.2985 Y.0717 Z-.1059 B37.913 C733.5
N4965 X.3032 Y.048 Z-.1074 B38.025 C729.
N4970 X.3067 Y0.0 Z-.1109 B38.25 C720.
N4975 X.304 Y-.0482 Z-.1127 B38.475 C711.
N4980 X.295 Y-.0959 Z-.1128 B38.7 C702.
N4985 X.279 Y-.1422 Z-.1123 B38.925 C693.
N4990 X.2553 Y-.1855 Z-.1124 B39.15 C684.
N4995 X.2243 Y-.2243 Z-.1135 B39.375 C675.
N5000 X.1873 Y-.2578 Z-.1147 B39.6 C666.
N5005 X.1454 Y-.2853 Z-.116 B39.825 C657.
N5010 X.0994 Y-.306 Z-.1173 B40.05 C648.
N5015 X.0751 Y-.313 Z-.1186 B40.163 C643.5
N5020 X.0503 Y-.3175 Z-.1206 B40.275 C639.
N5025 X.0252 Y-.3196 Z-.1231 B40.388 C634.5
N5030 X0.0 Y-.3199 Z-.1254 B40.5 C630.
N5035 X-.0502 Y-.3167 Z-.1275 B40.725 C621.
N5040 X-.1 Y-.3077 Z-.1272 B40.95 C612.
N5045 X-.1485 Y-.2914 Z-.1261 B41.175 C603.
N5050 X-.1941 Y-.2672 Z-.1254 B41.4 C594.
N5055 X-.2152 Y-.252 Z-.1256 B41.513 C589.5
N5060 X-.2348 Y-.2348 Z-.1262 B41.625 C585.
N5065 X-.2699 Y-.1961 Z-.1276 B41.85 C576.
N5070 X-.2985 Y-.1521 Z-.1289 B42.075 C567.
N5075 X-.3199 Y-.104 Z-.1303 B42.3 C558.
N5080 X-.327 Y-.0785 Z-.1319 B42.413 C553.5
N5085 X-.3312 Y-.0525 Z-.1344 B42.525 C549.
N5090 X-.3327 Y-.0262 Z-.1376 B42.638 C544.5
N5095 X-.3321 Y0.0 Z-.1407 B42.75 C540.
N5100 X-.3283 Y.052 Z-.1433 B42.975 C531.
N5105 X-.3193 Y.1037 Z-.1425 B43.2 C522.
N5110 X-.3121 Y.1293 Z-.1416 B43.313 C517.5
N5115 X-.303 Y.1544 Z-.1407 B43.425 C513.
N5120 X-.2918 Y.1788 Z-.1399 B43.538 C508.5
N5125 X-.2783 Y.2022 Z-.1393 B43.65 C504.
N5130 X-.2628 Y.2244 Z-.1392 B43.763 C499.5
N5135 X-.245 Y.245 Z-.1396 B43.875 C495.
N5140 X-.2045 Y.2815 Z-.1409 B44.1 C486.
N5145 X-.1586 Y.3113 Z-.1423 B44.325 C477.
N5150 X-.1083 Y.3334 Z-.1439 B44.55 C468.
N5155 X-.0818 Y.3406 Z-.1456 B44.663 C463.5
N5160 X-.0546 Y.3446 Z-.1483 B44.775 C459.
N5165 X-.0272 Y.3454 Z-.1521 B44.888 C454.5
N5170 X0.0 Y.3434 Z-.1566 B45. C450.
N5175 X.0268 Y.3411 Z-.1592 B45.113 C445.5
N5180 X.0536 Y.3386 Z-.1599 B45.225 C441.
N5185 X.1072 Y.3298 Z-.1586 B45.45 C432.
N5190 X.1337 Y.3228 Z-.1574 B45.563 C427.5
N5195 X.1599 Y.3137 Z-.1561 B45.675 C423.
N5200 X.1853 Y.3024 Z-.1549 B45.788 C418.5
N5205 X.2099 Y.2888 Z-.154 B45.9 C414.
N5210 X.2331 Y.2729 Z-.1535 B46.013 C409.5
N5215 X.2548 Y.2548 Z-.1536 B46.125 C405.
N5220 X.2927 Y.2127 Z-.1549 B46.35 C396.
N5225 X.3236 Y.1649 Z-.1563 B46.575 C387.
N5230 X.3361 Y.1392 Z-.157 B46.688 C382.5
N5235 X.3464 Y.1126 Z-.1579 B46.8 C378.
N5240 X.3538 Y.0849 Z-.1597 B46.913 C373.5
N5245 X.3578 Y.0567 Z-.1625 B47.025 C369.
N5250 X.3583 Y.0282 Z-.1665 B47.138 C364.5
N5255 X.3554 Y0.0 Z-.1715 B47.25 C360.
N5260 X.3526 Y-.0139 Z-.1744 B47.306 C357.75
N5265 X.3502 Y-.0276 Z-.1766 B47.363 C355.5
N5270 X.3476 Y-.0551 Z-.1772 B47.475 C351.
N5275 X.3442 Y-.0826 Z-.1767 B47.588 C346.5
N5280 X.3392 Y-.1102 Z-.1754 B47.7 C342.
N5285 X.3325 Y-.1377 Z-.1739 B47.813 C337.5
N5290 X.3235 Y-.1648 Z-.1722 B47.925 C333.
N5295 X.3123 Y-.1914 Z-.1707 B48.038 C328.5
N5300 X.2986 Y-.2169 Z-.1694 B48.15 C324.
N5305 X.2825 Y-.2412 Z-.1686 B48.263 C319.5
N5310 X.264 Y-.264 Z-.1683 B48.375 C315.
N5315 X.2432 Y-.2847 Z-.1686 B48.488 C310.5
N5320 X.2205 Y-.3034 Z-.1693 B48.6 C306.
N5325 X.1709 Y-.3353 Z-.1708 B48.825 C297.
N5330 X.1443 Y-.3483 Z-.1716 B48.938 C292.5
N5335 X.1166 Y-.359 Z-.1725 B49.05 C288.
N5340 X.088 Y-.3666 Z-.1741 B49.163 C283.5
N5345 X.0587 Y-.3707 Z-.1769 B49.275 C279.
N5350 X.0292 Y-.3712 Z-.1807 B49.388 C274.5
N5355 X0.0 Y-.368 Z-.1857 B49.5 C270.
N5360 X-.0143 Y-.3651 Z-.1886 B49.556 C267.75
N5365 X-.0284 Y-.3612 Z-.1917 B49.613 C265.5
N5370 X-.0422 Y-.3566 Z-.1952 B49.669 C263.25
N5375 X-.0563 Y-.3553 B49.725 C261.
N5380 X-.0845 Y-.3521 Z-.1944 B49.838 C256.5
N5385 X-.1129 Y-.3475 Z-.1928 B49.95 C252.
N5390 X-.1413 Y-.3411 Z-.1909 B50.063 C247.5
N5395 X-.1694 Y-.3324 Z-.1889 B50.175 C243.
N5400 X-.1969 Y-.3212 Z-.1871 B50.288 C238.5
N5405 X-.2235 Y-.3076 Z-.1855 B50.4 C234.
N5410 X-.2488 Y-.2913 Z-.1843 B50.513 C229.5
N5415 X-.2725 Y-.2725 Z-.1837 B50.625 C225.
N5420 X-.2943 Y-.2513 B50.738 C220.5
N5425 X-.3137 Y-.2279 Z-.1843 B50.85 C216.
N5430 X-.3311 Y-.2029 Z-.1851 B50.963 C211.5
N5435 X-.3466 Y-.1766 Z-.1858 B51.075 C207.
N5440 X-.3599 Y-.1491 Z-.1866 B51.188 C202.5
N5445 X-.371 Y-.1205 Z-.1875 B51.3 C198.
N5450 X-.379 Y-.091 Z-.189 B51.413 C193.5
N5455 X-.3834 Y-.0607 Z-.1915 B51.525 C189.
N5460 X-.384 Y-.0302 Z-.1951 B51.638 C184.5
N5465 X-.3808 Y0.0 Z-.1998 B51.75 C180.
N5470 X-.3778 Y.0148 Z-.2025 B51.806 C177.75
N5475 X-.3739 Y.0294 Z-.2055 B51.863 C175.5
N5480 X-.3691 Y.0437 Z-.2088 B51.919 C173.25
N5485 X-.3634 Y.0576 Z-.2123 B51.975 C171.
N5490 X-.3588 Y.0861 Z-.2126 B52.088 C166.5
N5495 X-.3547 Y.1152 Z-.2107 B52.2 C162.
N5500 X-.3486 Y.1444 Z-.2085 B52.313 C157.5
N5505 X-.3402 Y.1734 Z-.2062 B52.425 C153.
N5510 X-.3293 Y.2018 Z-.204 B52.538 C148.5
N5515 X-.3158 Y.2294 Z-.2021 B52.65 C144.
N5520 X-.2995 Y.2558 Z-.2006 B52.763 C139.5
N5525 X-.2805 Y.2805 Z-.1997 B52.875 C135.
N5530 X-.259 Y.3032 Z-.1994 B52.988 C130.5
N5535 X-.235 Y.3235 Z-.1998 B53.1 C126.
N5540 X-.2092 Y.3414 Z-.2006 B53.213 C121.5
N5545 X-.1821 Y.3573 Z-.2014 B53.325 C117.
N5550 X-.1537 Y.371 Z-.2022 B53.438 C112.5
N5555 X-.1243 Y.3825 Z-.2029 B53.55 C108.
N5560 X-.0939 Y.391 Z-.2042 B53.663 C103.5
N5565 X-.0627 Y.3957 Z-.2065 B53.775 C99.
N5570 X-.0312 Y.3965 Z-.2098 B53.888 C94.5
N5575 X0.0 Y.3934 Z-.2142 B54. C90.
N5580 X.0153 Y.3904 Z-.2167 B54.056 C87.75
N5585 X.0304 Y.3865 Z-.2195 B54.113 C85.5
N5590 X.0452 Y.3816 Z-.2225 B54.169 C83.25
N5595 X.0595 Y.3759 Z-.2258 B54.225 C81.
N5600 X.0734 Y.3692 Z-.2293 B54.281 C78.75
N5605 X.0874 Y.3642 Z-.2313 B54.338 C76.5
N5610 X.1172 Y.3606 Z-.2291 B54.45 C72.
N5615 X.1471 Y.3551 Z-.2265 B54.563 C67.5
N5620 X.1769 Y.3471 Z-.2239 B54.675 C63.
N5625 X.2062 Y.3365 Z-.2214 B54.788 C58.5
N5630 X.2348 Y.3231 Z-.2193 B54.9 C54.
N5635 X.2621 Y.3069 Z-.2175 B55.013 C49.5
N5640 X.2878 Y.2878 Z-.2163 B55.125 C45.
N5645 X.3115 Y.266 Z-.2157 B55.238 C40.5
N5650 X.3327 Y.2417 Z-.2158 B55.35 C36.
N5655 X.3512 Y.2152 Z-.2165 B55.463 C31.5
N5660 X.3675 Y.1872 Z-.2173 B55.575 C27.
N5665 X.3816 Y.158 Z-.2181 B55.688 C22.5
N5670 X.3933 Y.1278 Z-.219 B55.8 C18.
N5675 X.4023 Y.0966 Z-.22 B55.913 C13.5
N5680 X.4074 Y.0645 Z-.222 B56.025 C9.
N5685 X.4085 Y.0322 Z-.225 B56.138 C4.5
N5690 X.4056 Y0.0 Z-.229 B56.25 C0.0
N5695 X.4027 Y-.0158 Z-.2313 B56.306 C-2.25
N5700 X.3988 Y-.0314 Z-.2338 B56.363 C-4.5
N5705 X.394 Y-.0466 Z-.2366 B56.419 C-6.75
N5710 X.3882 Y-.0615 Z-.2396 B56.475 C-9.
N5715 X.3815 Y-.0759 Z-.2428 B56.531 C-11.25
N5720 X.374 Y-.0898 Z-.2463 B56.588 C-13.5
N5725 X.367 Y-.1035 Z-.249 B56.644 C-15.75
N5730 X.3653 Y-.1187 Z-.2477 B56.7 C-18.
N5735 X.3604 Y-.1493 Z-.2448 B56.813 C-22.5
N5740 X.353 Y-.1798 Z-.242 B56.925 C-27.
N5745 X.3428 Y-.2101 Z-.2393 B57.038 C-31.5
N5750 X.3297 Y-.2395 Z-.2369 B57.15 C-36.
N5755 X.3136 Y-.2678 Z-.2349 B57.263 C-40.5
N5760 X.2945 Y-.2945 Z-.2334 B57.375 C-45.
N5765 X.2725 Y-.3191 Z-.2325 B57.488 C-49.5
N5770 X.2479 Y-.3412 Z-.2323 B57.6 C-54.
N5775 X.2209 Y-.3604 Z-.2329 B57.713 C-58.5
N5780 X.1921 Y-.3771 Z-.2337 B57.825 C-63.
N5785 X.1622 Y-.3915 Z-.2346 B57.938 C-67.5
N5790 X.1311 Y-.4035 Z-.2354 B58.05 C-72.
N5795 X.0991 Y-.4129 Z-.2363 B58.163 C-76.5
N5800 X.0663 Y-.4185 Z-.238 B58.275 C-81.
N5805 X.0331 Y-.42 Z-.2407 B58.388 C-85.5
N5810 X0.0 Y-.4174 Z-.2442 B58.5 C-90.
N5815 X-.0163 Y-.4146 Z-.2463 B58.556 C-92.25
N5820 X-.0323 Y-.4108 Z-.2486 B58.613 C-94.5
N5825 X-.0481 Y-.406 Z-.2511 B58.669 C-96.75
N5830 X-.0634 Y-.4003 Z-.2538 B58.725 C-99.
N5835 X-.0783 Y-.3936 Z-.2568 B58.781 C-101.25
N5840 X-.0927 Y-.3861 Z-.2599 B58.838 C-103.5
N5845 X-.1065 Y-.3777 Z-.2632 B58.894 C-105.75
N5850 X-.1199 Y-.3689 Z-.2665 B58.95 C-108.
N5855 X-.151 Y-.3646 Z-.2634 B59.063 C-112.5
N5860 X-.1667 Y-.3616 Z-.2619 B59.119 C-114.75
N5865 X-.1823 Y-.3578 Z-.2604 B59.175 C-117.
N5870 X-.1979 Y-.3533 Z-.2589 B59.231 C-119.25
N5875 X-.2133 Y-.3481 Z-.2575 B59.288 C-121.5
N5880 X-.2437 Y-.3354 Z-.2548 B59.4 C-126.
N5885 X-.2729 Y-.3195 Z-.2526 B59.513 C-130.5
N5890 X-.3005 Y-.3005 Z-.2509 B59.625 C-135.
N5895 X-.326 Y-.2785 Z-.2498 B59.738 C-139.5
N5900 X-.349 Y-.2536 Z-.2494 B59.85 C-144.
N5905 X-.369 Y-.2261 Z-.2497 B59.963 C-148.5
N5910 X-.3861 Y-.1967 Z-.2506 B60.075 C-153.
N5915 X-.4008 Y-.166 Z-.2514 B60.188 C-157.5
N5920 X-.4131 Y-.1342 Z-.2523 B60.3 C-162.
N5925 X-.4228 Y-.1015 Z-.2531 B60.413 C-166.5
N5930 X-.4289 Y-.0679 Z-.2546 B60.525 C-171.
N5935 X-.4309 Y-.0339 Z-.2568 B60.638 C-175.5
N5940 X-.4287 Y0.0 Z-.2599 B60.75 C-180.
N5945 X-.426 Y.0167 Z-.2618 B60.806 C-182.25
N5950 X-.4223 Y.0332 Z-.2638 B60.863 C-184.5
N5955 X-.4177 Y.0494 Z-.2661 B60.919 C-186.75
N5960 X-.412 Y.0653 Z-.2685 B60.975 C-189.
N5965 X-.4054 Y.0806 Z-.2712 B61.031 C-191.25
N5970 X-.3978 Y.0955 Z-.274 B61.088 C-193.5
N5975 X-.3894 Y.1098 Z-.2771 B61.144 C-195.75
N5980 X-.3801 Y.1235 Z-.2803 B61.2 C-198.
N5985 X-.37 Y.1365 Z-.2837 B61.256 C-200.25
N5990 X-.3678 Y.1523 Z-.2822 B61.313 C-202.5
N5995 X-.365 Y.1683 Z-.2806 B61.369 C-204.75
N6000 X-.3616 Y.1842 Z-.279 B61.425 C-207.
N6005 X-.3574 Y.2002 Z-.2774 B61.481 C-209.25
N6010 X-.3525 Y.216 Z-.2759 B61.538 C-211.5
N6015 X-.3467 Y.2317 Z-.2745 B61.594 C-213.75
N6020 X-.3402 Y.2472 Z-.2731 B61.65 C-216.
N6025 X-.3246 Y.2772 Z-.2707 B61.763 C-220.5
N6030 X-.3058 Y.3058 Z-.2689 B61.875 C-225.
N6035 X-.2837 Y.3322 Z-.2676 B61.988 C-229.5
N6040 X-.2587 Y.3561 Z-.267 B62.1 C-234.
N6045 X-.231 Y.3769 B62.213 C-238.5
N6050 X-.201 Y.3945 Z-.2678 B62.325 C-243.
N6055 X-.1696 Y.4095 Z-.2686 B62.438 C-247.5
N6060 X-.1371 Y.422 Z-.2695 B62.55 C-252.
N6065 X-.1037 Y.4319 Z-.2704 B62.663 C-256.5
N6070 X-.0695 Y.4386 Z-.2715 B62.775 C-261.
N6075 X-.0347 Y.4411 Z-.2735 B62.888 C-265.5
N6080 X0.0 Y.4393 Z-.2762 B63. C-270.
N6085 X.0341 Y.4333 Z-.2796 B63.113 C-274.5
N6090 X.0507 Y.4287 Z-.2816 B63.169 C-276.75
N6095 X.067 Y.4232 Z-.2838 B63.225 C-279.
N6100 X.0829 Y.4166 Z-.2862 B63.281 C-281.25
N6105 X.0982 Y.4091 Z-.2887 B63.338 C-283.5
N6110 X.113 Y.4006 Z-.2915 B63.394 C-285.75
N6115 X.1271 Y.3913 Z-.2944 B63.45 C-288.
N6120 X.1406 Y.3811 Z-.2975 B63.506 C-290.25
N6125 X.1533 Y.3702 Z-.3008 B63.563 C-292.5
N6130 X.1694 Y.3674 Z-.2993 B63.619 C-294.75
N6135 X.1857 Y.3644 Z-.2977 B63.675 C-297.
N6140 X.2019 Y.3605 Z-.2961 B63.731 C-299.25
N6145 X.2181 Y.3559 Z-.2945 B63.788 C-301.5
N6150 X.2342 Y.3504 Z-.293 B63.844 C-303.75
N6155 X.25 Y.3441 Z-.2916 B63.9 C-306.
N6160 X.2656 Y.337 Z-.2903 B63.956 C-308.25
N6165 X.2809 Y.3289 Z-.2891 B64.013 C-310.5
N6170 X.3103 Y.3103 Z-.2871 B64.125 C-315.
N6175 X.3376 Y.2884 Z-.2857 B64.238 C-319.5
N6180 X.3624 Y.2633 Z-.2849 B64.35 C-324.
N6185 X.3841 Y.2354 Z-.2848 B64.463 C-328.5
N6190 X.4024 Y.205 Z-.2853 B64.575 C-333.
N6195 X.4176 Y.173 Z-.2862 B64.688 C-337.5
N6200 X.4303 Y.1398 Z-.2871 B64.8 C-342.
N6205 X.4403 Y.1057 Z-.288 B64.913 C-346.5
N6210 X.4475 Y.0709 Z-.289 B65.025 C-351.
N6215 X.4505 Y.0355 Z-.2906 B65.138 C-355.5
N6220 X.4492 Y0.0 Z-.2929 B65.25 C-360.
N6225 X.4436 Y-.0349 Z-.2959 B65.363 C-364.5
N6230 X.4392 Y-.052 Z-.2977 B65.419 C-366.75
N6235 X.4338 Y-.0687 Z-.2996 B65.475 C-369.
N6240 X.4273 Y-.085 Z-.3018 B65.531 C-371.25
N6245 X.4198 Y-.1008 Z-.304 B65.588 C-373.5
N6250 X.4114 Y-.116 Z-.3065 B65.644 C-375.75
N6255 X.4021 Y-.1306 Z-.3091 B65.7 C-378.
N6260 X.3919 Y-.1446 Z-.3119 B65.756 C-380.25
N6265 X.3809 Y-.1578 Z-.3148 B65.813 C-382.5
N6270 X.3691 Y-.1702 Z-.3179 B65.869 C-384.75
N6275 X.3661 Y-.1865 Z-.3164 B65.925 C-387.
N6280 X.3627 Y-.2031 Z-.3148 B65.981 C-389.25
N6285 X.3584 Y-.2196 Z-.3132 B66.038 C-391.5
N6290 X.3532 Y-.236 Z-.3117 B66.094 C-393.75
N6295 X.3472 Y-.2522 Z-.3103 B66.15 C-396.
N6300 X.3403 Y-.2682 Z-.309 B66.206 C-398.25
N6305 X.3324 Y-.2839 Z-.3077 B66.263 C-400.5
N6310 X.3237 Y-.2993 Z-.3066 B66.319 C-402.75
N6315 X.3141 Y-.3141 Z-.3057 B66.375 C-405.
N6320 X.2923 Y-.3423 Z-.3042 B66.488 C-409.5
N6325 X.2673 Y-.3678 Z-.3032 B66.6 C-414.
N6330 X.2392 Y-.3904 Z-.3029 B66.713 C-418.5
N6335 X.2086 Y-.4094 Z-.3033 B66.825 C-423.
N6340 X.176 Y-.425 Z-.3041 B66.938 C-427.5
N6345 X.1423 Y-.4379 Z-.305 B67.05 C-432.
N6350 X.1076 Y-.4481 Z-.3059 B67.163 C-436.5
N6355 X.0721 Y-.4555 Z-.3069 B67.275 C-441.
N6360 X.0361 Y-.4591 Z-.3082 B67.388 C-445.5
N6365 X0.0 Y-.4584 Z-.3101 B67.5 C-450.
N6370 X-.0357 Y-.4532 Z-.3127 B67.613 C-454.5
N6375 X-.0531 Y-.449 Z-.3143 B67.669 C-456.75
N6380 X-.0703 Y-.4436 Z-.316 B67.725 C-459.
N6385 X-.087 Y-.4373 Z-.3179 B67.781 C-461.25
N6390 X-.1032 Y-.4299 Z-.3199 B67.838 C-463.5
N6395 X-.1189 Y-.4216 Z-.3221 B67.894 C-465.75
N6400 X-.134 Y-.4123 Z-.3244 B67.95 C-468.
N6405 X-.1484 Y-.4021 Z-.3269 B68.006 C-470.25
N6410 X-.162 Y-.3911 Z-.3295 B68.063 C-472.5
N6415 X-.1748 Y-.3793 Z-.3323 B68.119 C-474.75
N6420 X-.1869 Y-.3669 Z-.3351 B68.175 C-477.
N6425 X-.2037 Y-.3638 Z-.3335 B68.231 C-479.25
N6430 X-.2205 Y-.3599 Z-.3319 B68.288 C-481.5
N6435 X-.2373 Y-.3551 Z-.3304 B68.344 C-483.75
N6440 X-.2538 Y-.3494 Z-.329 B68.4 C-486.
N6445 X-.2702 Y-.3427 Z-.3277 B68.456 C-488.25
N6450 X-.2862 Y-.3351 Z-.3265 B68.513 C-490.5
N6455 X-.3019 Y-.3266 Z-.3254 B68.569 C-492.75
N6460 X-.3172 Y-.3172 Z-.3244 B68.625 C-495.
N6465 X-.3319 Y-.3068 Z-.3236 B68.681 C-497.25
N6470 X-.3461 Y-.2956 Z-.3229 B68.738 C-499.5
N6475 X-.3725 Y-.2706 Z-.3219 B68.85 C-504.
N6480 X-.3959 Y-.2426 Z-.3214 B68.963 C-508.5
N6485 X-.4157 Y-.2118 Z-.3216 B69.075 C-513.
N6490 X-.4318 Y-.1789 Z-.3223 B69.188 C-517.5
N6495 X-.4448 Y-.1445 Z-.3233 B69.3 C-522.
N6500 X-.4551 Y-.1093 Z-.3242 B69.413 C-526.5
N6505 X-.4626 Y-.0733 Z-.3251 B69.525 C-531.
N6510 X-.4669 Y-.0367 Z-.3262 B69.638 C-535.5
N6515 X-.4667 Y0.0 Z-.3278 B69.75 C-540.
N6520 X-.462 Y.0364 Z-.3301 B69.863 C-544.5
N6525 X-.4528 Y.0717 Z-.3329 B69.975 C-549.
N6530 X-.4466 Y.0888 Z-.3345 B70.031 C-551.25
N6535 X-.4394 Y.1055 Z-.3363 B70.088 C-553.5
N6540 X-.4311 Y.1216 Z-.3382 B70.144 C-555.75
N6545 X-.4219 Y.1371 Z-.3403 B70.2 C-558.
N6550 X-.4118 Y.1519 Z-.3425 B70.256 C-560.25
N6555 X-.4008 Y.166 Z-.3448 B70.313 C-562.5
N6560 X-.3889 Y.1793 Z-.3472 B70.369 C-564.75
N6565 X-.3763 Y.1917 Z-.3498 B70.425 C-567.
N6570 X-.364 Y.2038 Z-.3521 B70.481 C-569.25
N6575 X-.3605 Y.2209 Z-.3506 B70.538 C-571.5
N6580 X-.356 Y.2379 Z-.3492 B70.594 C-573.75
N6585 X-.3506 Y.2548 Z-.3478 B70.65 C-576.
N6590 X-.3443 Y.2714 Z-.3465 B70.706 C-578.25
N6595 X-.337 Y.2878 Z-.3453 B70.763 C-580.5
N6600 X-.3287 Y.3039 Z-.3443 B70.819 C-582.75
N6605 X-.3195 Y.3195 Z-.3433 B70.875 C-585.
N6610 X-.3093 Y.3346 Z-.3425 B70.931 C-587.25
N6615 X-.2982 Y.3492 Z-.3418 B70.988 C-589.5
N6620 X-.2734 Y.3763 Z-.3407 B71.1 C-594.
N6625 X-.2454 Y.4005 Z-.3402 B71.213 C-598.5
N6630 X-.2146 Y.4211 Z-.3403 B71.325 C-603.
N6635 X-.1814 Y.4379 Z-.3408 B71.438 C-607.5
N6640 X-.1466 Y.4511 Z-.3418 B71.55 C-612.
N6645 X-.1108 Y.4615 Z-.3427 B71.663 C-616.5
N6650 X-.0743 Y.4691 Z-.3436 B71.775 C-621.
N6655 X-.0373 Y.4737 Z-.3446 B71.888 C-625.5
N6660 X0.0 Y.4741 Z-.346 B72. C-630.
N6665 X.037 Y.4699 Z-.3479 B72.113 C-634.5
N6670 X.073 Y.4612 Z-.3503 B72.225 C-639.
N6675 X.0905 Y.4551 Z-.3517 B72.281 C-641.25
N6680 X.1076 Y.4481 Z-.3533 B72.338 C-643.5
N6685 X.1241 Y.44 Z-.3549 B72.394 C-645.75
N6690 X.14 Y.4309 Z-.3567 B72.45 C-648.
N6695 X.1552 Y.4208 Z-.3586 B72.506 C-650.25
N6700 X.1698 Y.4098 Z-.3607 B72.563 C-652.5
N6705 X.1835 Y.398 Z-.3628 B72.619 C-654.75
N6710 X.1963 Y.3853 Z-.3651 B72.675 C-657.
N6715 X.2083 Y.3719 Z-.3675 B72.731 C-659.25
N6720 X.2207 Y.3601 Z-.3692 B72.788 C-661.5
N6725 X.2379 Y.3561 Z-.3678 B72.844 C-663.75
N6730 X.2551 Y.3511 Z-.3665 B72.9 C-666.
N6735 X.272 Y.345 Z-.3653 B72.956 C-668.25
N6740 X.2887 Y.338 Z-.3642 B73.013 C-670.5
N6745 X.3051 Y.33 Z-.3632 B73.069 C-672.75
N6750 X.321 Y.321 Z-.3623 B73.125 C-675.
N6755 X.3365 Y.3111 Z-.3615 B73.181 C-677.25
N6760 X.3514 Y.3001 Z-.3608 B73.238 C-679.5
N6765 X.3657 Y.2883 Z-.3602 B73.294 C-681.75
N6770 X.3793 Y.2756 Z-.3598 B73.35 C-684.
N6775 X.4042 Y.2477 Z-.3592 B73.463 C-688.5
N6780 X.4256 Y.2169 B73.575 C-693.
N6785 X.4431 Y.1835 Z-.3596 B73.688 C-697.5
N6790 X.4566 Y.1484 Z-.3605 B73.8 C-702.
N6795 X.4671 Y.1122 Z-.3614 B73.913 C-706.5
N6800 X.4748 Y.0752 Z-.3624 B74.025 C-711.
N6805 X.4795 Y.0377 Z-.3633 B74.138 C-715.5
N6810 X.4805 Y0.0 Z-.3645 B74.25 C-720.
N6815 X.4769 Y-.0375 Z-.3661 B74.363 C-724.5
N6820 X.4686 Y-.0742 Z-.3682 B74.475 C-729.
N6825 X.4628 Y-.0921 Z-.3694 B74.531 C-731.25
N6830 X.456 Y-.1095 Z-.3707 B74.588 C-733.5
N6835 X.448 Y-.1264 Z-.3722 B74.644 C-735.75
N6840 X.439 Y-.1427 Z-.3737 B74.7 C-738.
N6845 X.4291 Y-.1583 Z-.3754 B74.756 C-740.25
N6850 X.4182 Y-.1732 Z-.3771 B74.813 C-742.5
N6855 X.4064 Y-.1874 Z-.379 B74.869 C-744.75
N6860 X.3938 Y-.2006 Z-.381 B74.925 C-747.
N6865 X.3804 Y-.213 Z-.383 B74.981 C-749.25
N6870 X.3666 Y-.2247 Z-.3851 B75.038 C-751.5
N6875 X.3596 Y-.2302 Z-.3861 B75.066 C-752.625
N6880 X.3552 Y-.2374 Z-.3863 B75.094 C-753.75
N6885 X.3506 Y-.2547 Z-.3851 B75.15 C-756.
N6890 X.3449 Y-.2719 Z-.384 B75.206 C-758.25
N6895 X.3382 Y-.2889 Z-.383 B75.263 C-760.5
N6900 X.3305 Y-.3055 Z-.3821 B75.319 C-762.75
N6905 X.3218 Y-.3218 Z-.3812 B75.375 C-765.
N6910 X.3121 Y-.3376 Z-.3805 B75.431 C-767.25
N6915 X.3014 Y-.3528 Z-.3799 B75.488 C-769.5
N6920 X.2897 Y-.3675 Z-.3794 B75.544 C-771.75
N6925 X.2772 Y-.3815 Z-.3789 B75.6 C-774.
N6930 X.2495 Y-.4071 Z-.3784 B75.713 C-778.5
N6935 X.2187 Y-.4292 Z-.3783 B75.825 C-783.
N6940 X.1853 Y-.4475 Z-.3787 B75.938 C-787.5
N6945 X.15 Y-.4615 Z-.3795 B76.05 C-792.
N6950 X.1133 Y-.4721 Z-.3804 B76.163 C-796.5
N6955 X.076 Y-.4797 Z-.3814 B76.275 C-801.
N6960 X.0381 Y-.4845 Z-.3823 B76.388 C-805.5
N6965 X0.0 Y-.4859 Z-.3833 B76.5 C-810.
N6970 X-.038 Y-.4829 Z-.3847 B76.613 C-814.5
N6975 X-.0753 Y-.4752 Z-.3865 B76.725 C-819.
N6980 X-.1112 Y-.463 Z-.3887 B76.838 C-823.5
N6985 X-.1284 Y-.4552 Z-.3899 B76.894 C-825.75
N6990 X-.145 Y-.4464 Z-.3912 B76.95 C-828.
N6995 X-.1611 Y-.4366 Z-.3926 B77.006 C-830.25
N7000 X-.1764 Y-.4258 Z-.3941 B77.063 C-832.5
N7005 X-.1909 Y-.4141 Z-.3957 B77.119 C-834.75
N7010 X-.2047 Y-.4017 Z-.3974 B77.175 C-837.
N7015 X-.2178 Y-.3888 Z-.399 B77.231 C-839.25
N7020 X-.2302 Y-.3756 Z-.4006 B77.288 C-841.5
N7025 X-.2419 Y-.3621 Z-.4022 B77.344 C-843.75
N7030 X-.2537 Y-.3493 Z-.4035 B77.4 C-846.
N7035 X-.2712 Y-.344 Z-.4025 B77.456 C-848.25
N7040 X-.2884 Y-.3376 Z-.4017 B77.513 C-850.5
N7045 X-.3053 Y-.3302 Z-.4009 B77.569 C-852.75
N7050 X-.3218 Y-.3218 Z-.4001 B77.625 C-855.
N7055 X-.3379 Y-.3123 Z-.3995 B77.681 C-857.25
N7060 X-.3535 Y-.3019 Z-.399 B77.738 C-859.5
N7065 X-.3684 Y-.2905 Z-.3985 B77.794 C-861.75
N7070 X-.3827 Y-.2781 Z-.3981 B77.85 C-864.
N7075 X-.3963 Y-.2648 Z-.3979 B77.906 C-866.25
N7080 X-.4091 Y-.2507 Z-.3977 B77.963 C-868.5
N7085 X-.4319 Y-.2201 Z-.3976 B78.075 C-873.
N7090 X-.4509 Y-.1868 Z-.3979 B78.188 C-877.5
N7095 X-.4655 Y-.1513 Z-.3986 B78.3 C-882.
N7100 X-.4763 Y-.1143 Z-.3996 B78.413 C-886.5
N7105 X-.484 Y-.0767 Z-.4005 B78.525 C-891.
N7110 X-.4887 Y-.0385 Z-.4015 B78.638 C-895.5
N7115 X-.4904 Y0.0 Z-.4025 B78.75 C-900.
N7120 X-.488 Y.0384 Z-.4036 B78.863 C-904.5
N7125 X-.4809 Y.0762 Z-.4051 B78.975 C-909.
N7130 X-.4691 Y.1126 Z-.407 B79.088 C-913.5
N7135 X-.4616 Y.1302 Z-.408 B79.144 C-915.75
N7140 X-.4529 Y.1472 Z-.4091 B79.2 C-918.
N7145 X-.4433 Y.1635 Z-.4103 B79.256 C-920.25
N7150 X-.4327 Y.1792 Z-.4116 B79.313 C-922.5
N7155 X-.4213 Y.1942 Z-.4129 B79.369 C-924.75
N7160 X-.4096 Y.2087 Z-.4142 B79.425 C-927.
N7165 X-.3973 Y.2225 Z-.4154 B79.481 C-929.25
N7170 X-.3847 Y.2357 Z-.4167 B79.538 C-931.5
N7175 X-.3717 Y.2483 Z-.4179 B79.594 C-933.75
N7180 X-.3583 Y.2603 Z-.4191 B79.65 C-936.
N7185 X-.3446 Y.2717 Z-.4203 B79.706 C-938.25
N7190 X-.3393 Y.2785 Z-.4205 B79.734 C-939.375
N7195 X-.3362 Y.2872 Z-.4201 B79.763 C-940.5
N7200 X-.3292 Y.3043 Z-.4195 B79.819 C-942.75
N7205 X-.3211 Y.3211 Z-.4189 B79.875 C-945.
N7210 X-.3119 Y.3374 Z-.4184 B79.931 C-947.25
N7215 X-.3017 Y.3533 Z-.418 B79.988 C-949.5
N7220 X-.2905 Y.3686 Z-.4176 B80.044 C-951.75
N7225 X-.2784 Y.3832 Z-.4173 B80.1 C-954.
N7230 X-.2653 Y.3971 Z-.4171 B80.156 C-956.25
N7235 X-.2513 Y.4102 Z-.417 B80.213 C-958.5
N7240 X-.221 Y.4337 B80.325 C-963.
N7245 X-.1878 Y.4534 Z-.4173 B80.438 C-967.5
N7250 X-.1523 Y.4687 Z-.418 B80.55 C-972.
N7255 X-.1152 Y.4797 Z-.4189 B80.663 C-976.5
N7260 X-.0772 Y.4875 Z-.4198 B80.775 C-981.
N7265 X-.0387 Y.4922 Z-.4208 B80.888 C-985.5
N7270 X0.0 Y.4938 Z-.4218 B81. C-990.
N7275 X.0387 Y.492 Z-.4228 B81.113 C-994.5
N7280 X.0769 Y.4855 Z-.4241 B81.225 C-999.
N7285 X.1139 Y.4743 Z-.4257 B81.338 C-1003.5
N7290 X.1317 Y.467 Z-.4266 B81.394 C-1005.75
N7295 X.149 Y.4586 Z-.4275 B81.45 C-1008.
N7300 X.1657 Y.4492 Z-.4285 B81.506 C-1010.25
N7305 X.1819 Y.4391 Z-.4295 B81.563 C-1012.5
N7310 X.2127 Y.4174 Z-.4314 B81.675 C-1017.
N7315 X.2413 Y.3938 Z-.4333 B81.788 C-1021.5
N7320 X.2677 Y.3685 Z-.4352 B81.9 C-1026.
N7325 X.2917 Y.3416 Z-.437 B82.013 C-1030.5
N7330 X.3028 Y.3276 Z-.4378 B82.069 C-1032.75
N7335 X.3196 Y.3196 Z-.4375 B82.125 C-1035.
N7340 X.3362 Y.3108 Z-.4371 B82.181 C-1037.25
N7345 X.3523 Y.3009 Z-.4368 B82.238 C-1039.5
N7350 X.3678 Y.29 Z-.4366 B82.294 C-1041.75
N7355 X.3828 Y.2781 Z-.4365 B82.35 C-1044.
N7360 X.3969 Y.2652 Z-.4364 B82.406 C-1046.25
N7365 X.4104 Y.2515 Z-.4363 B82.463 C-1048.5
N7370 X.4229 Y.2368 B82.519 C-1050.75
N7375 X.4346 Y.2214 Z-.4364 B82.575 C-1053.
N7380 X.4549 Y.1884 Z-.4368 B82.688 C-1057.5
N7385 X.4709 Y.153 Z-.4374 B82.8 C-1062.
N7390 X.4825 Y.1158 Z-.4383 B82.913 C-1066.5
N7395 X.4902 Y.0776 Z-.4393 B83.025 C-1071.
N7400 X.4949 Y.0389 Z-.4403 B83.138 C-1075.5
N7405 X.4965 Y0.0 Z-.4412 B83.25 C-1080.
N7410 X.495 Y-.039 Z-.4422 B83.363 C-1084.5
N7415 X.4891 Y-.0775 Z-.4434 B83.475 C-1089.
N7420 X.4785 Y-.1149 Z-.4447 B83.588 C-1093.5
N7425 X.4634 Y-.1506 Z-.4462 B83.7 C-1098.
N7430 X.4455 Y-.1845 Z-.4477 B83.813 C-1102.5
N7435 X.4252 Y-.2167 Z-.4492 B83.925 C-1107.
N7440 X.4029 Y-.2469 Z-.4506 B84.038 C-1111.5
N7445 X.3786 Y-.2751 Z-.4521 B84.15 C-1116.
N7450 X.3525 Y-.3011 Z-.4534 B84.263 C-1120.5
N7455 X.3249 Y-.3249 Z-.4547 B84.375 C-1125.
N7460 X.31 Y-.3354 Z-.4555 B84.431 C-1127.25
N7465 X.3081 Y-.3366 Z-.4556 B84.438 C-1127.531
N7470 X.3072 Y-.3373 B84.442 C-1127.672
N7475 X.3067 Y-.3384 B84.445 C-1127.812
N7480 X.3043 Y-.3424 B84.459 C-1128.375
N7485 X.2994 Y-.3506 Z-.4555 B84.488 C-1129.5
N7490 X.2888 Y-.3663 Z-.4554 B84.544 C-1131.75
N7495 X.2772 Y-.3815 B84.6 C-1134.
N7500 X.2646 Y-.396 Z-.4555 B84.656 C-1136.25
N7505 X.251 Y-.4097 B84.713 C-1138.5
N7510 X.2366 Y-.4225 Z-.4557 B84.769 C-1140.75
N7515 X.2214 Y-.4345 Z-.4558 B84.825 C-1143.
N7520 X.1886 Y-.4554 Z-.4563 B84.938 C-1147.5
N7525 X.1534 Y-.4722 Z-.457 B85.05 C-1152.
N7530 X.1163 Y-.4843 Z-.4578 B85.163 C-1156.5
N7535 X.078 Y-.4922 Z-.4588 B85.275 C-1161.
N7540 X.0391 Y-.4968 Z-.4598 B85.388 C-1165.5
N7545 X0.0 Y-.4985 Z-.4608 B85.5 C-1170.
N7550 X-.0391 Y-.497 Z-.4617 B85.613 C-1174.5
N7555 X-.0779 Y-.4918 Z-.4628 B85.725 C-1179.
N7560 X-.1157 Y-.4817 Z-.4639 B85.838 C-1183.5
N7565 X-.152 Y-.468 Z-.4652 B85.95 C-1188.
N7570 X-.1871 Y-.4517 Z-.4664 B86.063 C-1192.5
N7575 X-.2206 Y-.4329 Z-.4675 B86.175 C-1197.
N7580 X-.2524 Y-.4119 Z-.4687 B86.288 C-1201.5
N7585 X-.2824 Y-.3887 Z-.4698 B86.4 C-1206.
N7590 X-.3104 Y-.3635 Z-.4709 B86.513 C-1210.5
N7595 X-.3363 Y-.3363 Z-.4719 B86.625 C-1215.
N7600 X-.3477 Y-.3215 Z-.4725 B86.681 C-1217.25
N7605 X-.3577 Y-.3055 Z-.4732 B86.738 C-1219.5
N7610 X-.3673 Y-.2847 Z-.4741 B86.806 C-1222.221
N7615 X-.3674 Y-.2846 C-1222.242
N7620 X-.3794 Y-.2757 Z-.4742 B86.85 C-1224.
N7625 X-.3941 Y-.2633 Z-.4744 B86.906 C-1226.25
N7630 X-.4081 Y-.2501 Z-.4746 B86.963 C-1228.5
N7635 X-.4212 Y-.2359 Z-.4749 B87.019 C-1230.75
N7640 X-.4334 Y-.2209 Z-.4751 B87.075 C-1233.
N7645 X-.4447 Y-.205 Z-.4755 B87.131 C-1235.25
N7650 X-.455 Y-.1885 Z-.4758 B87.188 C-1237.5
N7655 X-.4724 Y-.1535 Z-.4766 B87.3 C-1242.
N7660 X-.4852 Y-.1165 Z-.4774 B87.413 C-1246.5
N7665 X-.4934 Y-.0781 Z-.4784 B87.525 C-1251.
N7670 X-.498 Y-.0392 Z-.4794 B87.638 C-1255.5
N7675 X-.4996 Y0.0 Z-.4804 B87.75 C-1260.
N7680 X-.4981 Y.0392 Z-.4814 B87.863 C-1264.5
N7685 X-.4933 Y.0781 Z-.4823 B87.975 C-1269.
N7690 X-.4843 Y.1163 Z-.4834 B88.088 C-1273.5
N7695 X-.4723 Y.1535 Z-.4844 B88.2 C-1278.
N7700 X-.4576 Y.1896 Z-.4854 B88.313 C-1282.5
N7705 X-.4404 Y.2244 Z-.4864 B88.425 C-1287.
N7710 X-.4207 Y.2578 Z-.4874 B88.538 C-1291.5
N7715 X-.3986 Y.2896 Z-.4884 B88.65 C-1296.
N7720 X-.3743 Y.3197 Z-.4894 B88.763 C-1300.5
N7725 X-.3476 Y.3476 Z-.4903 B88.875 C-1305.
N7730 X-.3327 Y.3599 Z-.4909 B88.931 C-1307.25
N7735 X-.3167 Y.3708 Z-.4914 B88.988 C-1309.5
N7740 X-.2996 Y.38 Z-.4919 B89.044 C-1311.75
N7745 X-.2814 Y.3873 Z-.4925 B89.1 C-1314.
N7750 X-.2603 Y.3929 Z-.4931 B89.162 C-1316.471
N7755 X-.2491 Y.4051 Z-.4934 B89.21 C-1318.412
N7760 X-.2372 Y.4167 Z-.4938 B89.259 C-1320.353
N7765 X-.2246 Y.4277 Z-.4942 B89.307 C-1322.295
N7770 X-.2114 Y.438 Z-.4945 B89.356 C-1324.236
N7775 X-.1833 Y.4564 Z-.4953 B89.453 C-1328.118
N7780 X-.1165 Y.4851 Z-.4971 B89.663 C-1336.5
N7785 X-.0782 Y.4938 Z-.498 B89.775 C-1341.
N7790 X-.0392 Y.4985 Z-.499 B89.888 C-1345.5
N7795 X0.0 Y.5 Z-.5 B90. C-1350.
N7800 C-1350.036
N7805 X.0392 Y.4985 C-1354.5
N7810 X.0782 Y.4938 C-1359.
N7815 X.1167 Y.4862 C-1363.5
N7820 X.1545 Y.4756 C-1368.
N7825 X.1914 Y.462 C-1372.5
N7830 X.227 Y.4455 C-1377.
N7835 X.2613 Y.4263 C-1381.5
N7840 X.2939 Y.4045 C-1386.
N7845 X.3247 Y.3802 C-1390.5
N7850 X.3531 Y.3531 C-1395.
N7855 X.3656 Y.3379 C-1397.25
N7860 X.3766 Y.3216 C-1399.5
N7865 X.386 Y.3043 C-1401.75
N7870 X.3933 Y.2858 C-1404.
N7875 X.3978 Y.2691 C-1405.922
N7880 X.4005 Y.2518 C-1407.843
N7885 X.4114 Y.2412 C-1409.613
N7890 X.4217 Y.2301 C-1411.382
N7895 X.4408 Y.2063 C-1414.922
N7900 X.4574 Y.1805 C-1418.461
N7905 X.4713 Y.1532 C-1422.
N7910 X.485 Y.1164 C-1426.5
N7915 X.4938 Y.0782 C-1431.
N7920 X.4985 Y.0392 C-1435.5
N7925 X.5 Y0.0 C-1440.
N7930 X.4985 Y-.0392 C-1444.5
N7935 X.4938 Y-.0782 C-1449.
N7940 X.4862 Y-.1167 C-1453.5
N7945 X.4756 Y-.1545 C-1458.
N7950 X.462 Y-.1914 C-1462.5
N7955 X.4455 Y-.227 C-1467.
N7960 X.4263 Y-.2613 C-1471.5
N7965 X.4045 Y-.2939 C-1476.
N7970 X.3802 Y-.3247 C-1480.5
N7975 X.3531 Y-.3531 C-1485.
N7980 X.3379 Y-.3656 C-1487.25
N7985 X.3216 Y-.3766 C-1489.5
N7990 X.3043 Y-.386 C-1491.75
N7995 X.2858 Y-.3933 C-1494.
N8000 X.2691 Y-.3978 C-1495.922
N8005 X.2518 Y-.4005 C-1497.843
N8010 X.2412 Y-.4114 C-1499.613
N8015 X.2301 Y-.4217 C-1501.382
N8020 X.2063 Y-.4408 C-1504.922
N8025 X.1805 Y-.4574 C-1508.461
N8030 X.1532 Y-.4713 C-1512.
N8035 X.1164 Y-.485 C-1516.5
N8040 X.0782 Y-.4938 C-1521.
N8045 X.0392 Y-.4985 C-1525.5
N8050 X0.0 Y-.5 C-1530.
N8055 X-.0392 Y-.4985 C-1534.5
N8060 X-.0782 Y-.4938 C-1539.
N8065 X-.1167 Y-.4862 C-1543.5
N8070 X-.1545 Y-.4756 C-1548.
N8075 X-.1914 Y-.462 C-1552.5
N8080 X-.227 Y-.4455 C-1557.
N8085 X-.2613 Y-.4263 C-1561.5
N8090 X-.2939 Y-.4045 C-1566.
N8095 X-.3247 Y-.3802 C-1570.5
N8100 X-.3531 Y-.3531 C-1575.
N8105 X-.3656 Y-.3379 C-1577.25
N8110 X-.3766 Y-.3216 C-1579.5
N8115 X-.386 Y-.3043 C-1581.75
N8120 X-.3933 Y-.2858 C-1584.
N8125 X-.3978 Y-.2691 C-1585.922
N8130 X-.4005 Y-.2518 C-1587.843
N8135 X-.4114 Y-.2412 C-1589.613
N8140 X-.4217 Y-.2301 C-1591.382
N8145 X-.4408 Y-.2063 C-1594.922
N8150 X-.4574 Y-.1805 C-1598.461
N8155 X-.4713 Y-.1532 C-1602.
N8160 X-.485 Y-.1164 C-1606.5
N8165 X-.4938 Y-.0782 C-1611.
N8170 X-.4985 Y-.0392 C-1615.5
N8175 X-.5 Y0.0 C-1620.
N8180 X-.4985 Y.0392 C-1624.5
N8185 X-.4938 Y.0782 C-1629.
N8190 X-.4862 Y.1167 C-1633.5
N8195 X-.4756 Y.1545 C-1638.
N8200 X-.462 Y.1914 C-1642.5
N8205 X-.4455 Y.227 C-1647.
N8210 X-.4263 Y.2613 C-1651.5
N8215 X-.4045 Y.2939 C-1656.
N8220 X-.3802 Y.3247 C-1660.5
N8225 X-.3531 Y.3531 C-1665.
N8230 X-.3379 Y.3656 C-1667.25
N8235 X-.3216 Y.3766 C-1669.5
N8240 X-.3043 Y.386 C-1671.75
N8245 X-.2858 Y.3933 C-1674.
N8250 X-.2693 Y.3978 C-1675.898
N8255 X-.252 Y.4002 C-1677.797
N8260 X-.2405 Y.412 C-1679.725
N8265 X-.2286 Y.4231 C-1681.617
N8270 X-.216 Y.4335 C-1683.509
N8275 X-.1892 Y.4522 C-1687.294
N8280 X-.1604 Y.468 C-1691.078
N8285 X-.13 Y.4806 C-1694.862
N8290 X-.0983 Y.4898 C-1698.647
N8295 X-.0659 Y.4956 C-1702.431
N8300 X0.0 Y.5 C-1710.
N8305 X.1089 Y.5142
N8310 X.1622 Y.5275
N8315 X.2138 Y.5462
N8320 X.2625 Y.5716
N8325 X.3062 Y.6049
N8330 X.3417 Y.6466
N8335 X.3655 Y.6959
N8340 X.3742 Y.75
N8345 G49
N8350 G255
 
( OPER: CONTOUR_PROFILE )
N8355 G53 G00 Z0.0
N8360 S3000 M03
N8365 G00 B90. C-1800.
N8370 G234 H18
N8375 G54 G90 X5.9274 Y-.3748 Z-1.5125
N8380 X1.5774
N8385 G01 X.6324 F9.8
N8390 X.5856 Y-.3645 Z-1.5243
N8395 X.5551 Y-.3338 Z-1.5491
N8400 X.5378 Y-.2928 Z-1.5722
N8405 X.5272 Y-.2472 Z-1.5905
N8410 X.5203 Y-.1993 Z-1.6042
N8415 X.5156 Y-.1502 Z-1.6139
N8420 X.5122 Y-.1004 Z-1.6203
N8425 X.5097 Y-.0503 Z-1.6239
N8430 X.5079 Y0.0 Z-1.625
N8435 X.5068 Y.0325 C-1796.326
N8440 X.5037 Y.0649 C-1792.653
N8445 X.4985 Y.0971 C-1788.979
N8450 X.4913 Y.1288 C-1785.307
N8455 X.482 Y.16 C-1781.632
N8460 X.4708 Y.1906 C-1777.96
N8465 X.4576 Y.2204 C-1774.285
N8470 X.4425 Y.2492 C-1770.614
N8475 X.4256 Y.277 C-1766.938
N8480 X.4165 Y.2906 C-1765.1
N8485 X.4069 Y.3037 C-1763.267
N8490 X.3867 Y.3292 C-1759.591
N8495 X.3648 Y.3533 C-1755.92
N8500 X.3414 Y.376 C-1752.244
N8505 X.3167 Y.3971 C-1748.573
N8510 X.2905 Y.4165 C-1744.897
N8515 X.2633 Y.4343 C-1741.226
N8520 X.2349 Y.4503 C-1737.55
N8525 X.2056 Y.4644 C-1733.879
N8530 X.1754 Y.4766 C-1730.203
N8535 X.1445 Y.4869 C-1726.533
N8540 X.113 Y.4951 C-1722.856
N8545 X.0811 Y.5014 C-1719.185
N8550 X.0488 Y.5055 C-1715.508
N8555 X.0163 Y.5076 C-1711.838
N8560 X-.0163 C-1708.161
N8565 X-.0488 Y.5055 C-1704.491
N8570 X-.0811 Y.5014 C-1700.814
N8575 X-.113 Y.4951 C-1697.145
N8580 X-.1445 Y.4869 C-1693.468
N8585 X-.1754 Y.4766 C-1689.798
N8590 X-.2056 Y.4644 C-1686.121
N8595 X-.2349 Y.4503 C-1682.45
N8600 X-.2633 Y.4343 C-1678.774
N8605 X-.2905 Y.4165 C-1675.103
N8610 X-.3167 Y.3971 C-1671.427
N8615 X-.3414 Y.376 C-1667.756
N8620 X-.3648 Y.3533 C-1664.08
N8625 X-.3867 Y.3292 C-1660.409
N8630 X-.407 Y.3038 C-1656.733
N8635 X-.4256 Y.2771 C-1653.062
N8640 X-.4424 Y.2492 C-1649.387
N8645 X-.4576 Y.2204 C-1645.715
N8650 X-.4708 Y.1906 C-1642.04
N8655 X-.482 Y.16 C-1638.368
N8660 X-.4913 Y.1288 C-1634.693
N8665 X-.4985 Y.0971 C-1631.021
N8670 X-.5037 Y.0649 C-1627.346
N8675 X-.5068 Y.0325 C-1623.674
N8680 X-.5079 Y0.0 C-1620.
N8685 X-.5068 Y-.0325 C-1616.326
N8690 X-.5037 Y-.0649 C-1612.654
N8695 X-.4985 Y-.0971 C-1608.979
N8700 X-.4913 Y-.1288 C-1605.307
N8705 X-.482 Y-.16 C-1601.632
N8710 X-.4708 Y-.1906 C-1597.96
N8715 X-.4576 Y-.2204 C-1594.285
N8720 X-.4425 Y-.2492 C-1590.613
N8725 X-.4256 Y-.2771 C-1586.938
N8730 X-.4069 Y-.3037 C-1583.267
N8735 X-.3867 Y-.3292 C-1579.591
N8740 X-.3648 Y-.3533 C-1575.92
N8745 X-.3414 Y-.376 C-1572.244
N8750 X-.3167 Y-.3971 C-1568.573
N8755 X-.2905 Y-.4165 C-1564.897
N8760 X-.2633 Y-.4343 C-1561.226
N8765 X-.2349 Y-.4503 C-1557.55
N8770 X-.2056 Y-.4644 C-1553.879
N8775 X-.1754 Y-.4766 C-1550.202
N8780 X-.1445 Y-.4869 C-1546.532
N8785 X-.113 Y-.4951 C-1542.855
N8790 X-.0811 Y-.5014 C-1539.186
N8795 X-.0488 Y-.5055 C-1535.509
N8800 X-.0163 Y-.5076 C-1531.839
N8805 X.0163 C-1528.162
N8810 X.0488 Y-.5055 C-1524.492
N8815 X.0811 Y-.5014 C-1520.815
N8820 X.113 Y-.4951 C-1517.144
N8825 X.1445 Y-.4869 C-1513.467
N8830 X.1754 Y-.4766 C-1509.797
N8835 X.2056 Y-.4644 C-1506.121
N8840 X.2349 Y-.4503 C-1502.45
N8845 X.2633 Y-.4343 C-1498.774
N8850 X.2905 Y-.4165 C-1495.103
N8855 X.3167 Y-.3971 C-1491.427
N8860 X.3414 Y-.376 C-1487.756
N8865 X.3648 Y-.3533 C-1484.08
N8870 X.3867 Y-.3292 C-1480.409
N8875 X.407 Y-.3038 C-1476.733
N8880 X.4256 Y-.2771 C-1473.062
N8885 X.4424 Y-.2492 C-1469.386
N8890 X.4576 Y-.2204 C-1465.715
N8895 X.4708 Y-.1906 C-1462.04
N8900 X.482 Y-.16 C-1458.368
N8905 X.4913 Y-.1288 C-1454.693
N8910 X.4985 Y-.0971 C-1451.021
N8915 X.5037 Y-.0649 C-1447.347
N8920 X.5068 Y-.0325 C-1443.674
N8925 X.5079 Y0.0 C-1440.
N8930 X.5122 Y.1004 Z-1.6203
N8935 X.5156 Y.1502 Z-1.6139
N8940 X.5203 Y.1993 Z-1.6042
N8945 X.5272 Y.2472 Z-1.5905
N8950 X.5378 Y.2928 Z-1.5722
N8955 X.5551 Y.3338 Z-1.5491
N8960 X.5856 Y.3645 Z-1.5243
N8965 X.6324 Y.3748 Z-1.5125
N8970 X1.5774
N8975 G00 X5.9274
N8980 G49
N8985 G255
 
( OPER: TURN_MILLING )
N8990 S2883 M03
N8995 G00 B90. C-1440.
N9000 G234 H18
N9005 G90 X.5118 Y-2.5191 Z-.6378
N9010 G01 Y-2.5151 F9.8
N9015 Y0.0
N9020 X.511 Y.0282 C-1436.842
N9025 X.5087 Y.0563 C-1433.684
N9030 X.5048 Y.0842 C-1430.526
N9035 X.4994 Y.1119 C-1427.368
N9040 X.4925 Y.1393 C-1424.211
N9045 X.4841 Y.1662 C-1421.053
N9050 X.4742 Y.1926 C-1417.895
N9055 X.4629 Y.2184 C-1414.737
N9060 X.4501 Y.2436 C-1411.579
N9065 X.436 Y.268 C-1408.421
N9070 X.4206 Y.2916 C-1405.263
N9075 X.4039 Y.3144 C-1402.105
N9080 X.386 Y.3361 C-1398.947
N9085 X.3669 Y.3569 C-1395.789
N9090 X.3466 Y.3766 C-1392.632
N9095 X.3254 Y.3951 C-1389.474
N9100 X.3031 Y.4124 C-1386.316
N9105 X.2799 Y.4285 C-1383.158
N9110 X.2559 Y.4432 C-1380.
N9115 X.2311 Y.4567 C-1376.842
N9120 X.2056 Y.4687 C-1373.684
N9125 X.1795 Y.4793 C-1370.526
N9130 X.1528 Y.4885 C-1367.368
N9135 X.1256 Y.4961 C-1364.211
N9140 X.0981 Y.5023 C-1361.053
N9145 X.0703 Y.507 C-1357.895
N9150 X.0423 Y.5101 C-1354.737
N9155 X.0141 Y.5116 C-1351.579
N9160 X-.0141 C-1348.421
N9165 X-.0423 Y.5101 C-1345.263
N9170 X-.0703 Y.507 C-1342.105
N9175 X-.0981 Y.5023 C-1338.947
N9180 X-.1256 Y.4961 C-1335.789
N9185 X-.1528 Y.4885 C-1332.632
N9190 X-.1795 Y.4793 C-1329.474
N9195 X-.2056 Y.4687 C-1326.316
N9200 X-.2311 Y.4567 C-1323.158
N9205 X-.2559 Y.4432 C-1320.
N9210 X-.2799 Y.4285 C-1316.842
N9215 X-.3031 Y.4124 C-1313.684
N9220 X-.3254 Y.3951 C-1310.526
N9225 X-.3466 Y.3766 C-1307.368
N9230 X-.3669 Y.3569 C-1304.211
N9235 X-.386 Y.3361 C-1301.053
N9240 X-.4039 Y.3144 C-1297.895
N9245 X-.4206 Y.2916 C-1294.737
N9250 X-.436 Y.268 C-1291.579
N9255 X-.4501 Y.2436 C-1288.421
N9260 X-.4629 Y.2184 C-1285.263
N9265 X-.4742 Y.1926 C-1282.105
N9270 X-.4841 Y.1662 C-1278.947
N9275 X-.4925 Y.1393 C-1275.789
N9280 X-.4994 Y.1119 C-1272.632
N9285 X-.5048 Y.0842 C-1269.474
N9290 X-.5087 Y.0563 C-1266.316
N9295 X-.511 Y.0282 C-1263.158
N9300 X-.5118 Y0.0 C-1260.
N9305 X-.511 Y-.0282 C-1256.842
N9310 X-.5087 Y-.0563 C-1253.684
N9315 X-.5048 Y-.0842 C-1250.526
N9320 X-.4994 Y-.1119 C-1247.368
N9325 X-.4925 Y-.1393 C-1244.211
N9330 X-.4841 Y-.1662 C-1241.053
N9335 X-.4742 Y-.1926 C-1237.895
N9340 X-.4629 Y-.2184 C-1234.737
N9345 X-.4501 Y-.2436 C-1231.579
N9350 X-.436 Y-.268 C-1228.421
N9355 X-.4206 Y-.2916 C-1225.263
N9360 X-.4039 Y-.3144 C-1222.105
N9365 X-.386 Y-.3361 C-1218.947
N9370 X-.3669 Y-.3569 C-1215.789
N9375 X-.3466 Y-.3766 C-1212.632
N9380 X-.3254 Y-.3951 C-1209.474
N9385 X-.3031 Y-.4124 C-1206.316
N9390 X-.2799 Y-.4285 C-1203.158
N9395 X-.2559 Y-.4432 C-1200.
N9400 X-.2311 Y-.4567 C-1196.842
N9405 X-.2056 Y-.4687 C-1193.684
N9410 X-.1795 Y-.4793 C-1190.526
N9415 X-.1528 Y-.4885 C-1187.368
N9420 X-.1256 Y-.4961 C-1184.211
N9425 X-.0981 Y-.5023 C-1181.053
N9430 X-.0703 Y-.507 C-1177.895
N9435 X-.0423 Y-.5101 C-1174.737
N9440 X-.0141 Y-.5116 C-1171.579
N9445 X.0141 C-1168.421
N9450 X.0423 Y-.5101 C-1165.263
N9455 X.0703 Y-.507 C-1162.105
N9460 X.0981 Y-.5023 C-1158.947
N9465 X.1256 Y-.4961 C-1155.789
N9470 X.1528 Y-.4885 C-1152.632
N9475 X.1795 Y-.4793 C-1149.474
N9480 X.2056 Y-.4687 C-1146.316
N9485 X.2311 Y-.4567 C-1143.158
N9490 X.2559 Y-.4432 C-1140.
N9495 X.2799 Y-.4285 C-1136.842
N9500 X.3031 Y-.4124 C-1133.684
N9505 X.3254 Y-.3951 C-1130.526
N9510 X.3466 Y-.3766 C-1127.368
N9515 X.3669 Y-.3569 C-1124.211
N9520 X.386 Y-.3361 C-1121.053
N9525 X.4039 Y-.3144 C-1117.895
N9530 X.4206 Y-.2916 C-1114.737
N9535 X.436 Y-.268 C-1111.579
N9540 X.4501 Y-.2436 C-1108.421
N9545 X.4629 Y-.2184 C-1105.263
N9550 X.4742 Y-.1926 C-1102.105
N9555 X.4841 Y-.1662 C-1098.947
N9560 X.4925 Y-.1393 C-1095.789
N9565 X.4994 Y-.1119 C-1092.632
N9570 X.5048 Y-.0842 C-1089.474
N9575 X.5087 Y-.0563 C-1086.316
N9580 X.511 Y-.0282 C-1083.158
N9585 X.5118 Y0.0 C-1080.
N9590 X.511 Y.0283 Z-.6411 C-1076.828
N9595 X.5087 Y.0565 Z-.6444 C-1073.657
N9600 X.5048 Y.0846 Z-.6477 C-1070.485
N9605 X.4993 Y.1124 Z-.651 C-1067.314
N9610 X.4923 Y.1399 Z-.6543 C-1064.142
N9615 X.4838 Y.1669 Z-.6576 C-1060.971
N9620 X.4739 Y.1934 Z-.6609 C-1057.799
N9625 X.4624 Y.2193 Z-.6642 C-1054.628
N9630 X.4496 Y.2446 Z-.6675 C-1051.456
N9635 X.4354 Y.2691 Z-.6708 C-1048.285
N9640 X.4198 Y.2927 Z-.6741 C-1045.113
N9645 X.403 Y.3155 Z-.6774 C-1041.941
N9650 X.3849 Y.3373 Z-.6807 C-1038.77
N9655 X.3657 Y.3581 Z-.684 C-1035.598
N9660 X.3453 Y.3778 Z-.6874 C-1032.427
N9665 X.3239 Y.3963 Z-.6907 C-1029.255
N9670 X.3014 Y.4136 Z-.694 C-1026.084
N9675 X.2781 Y.4297 Z-.6973 C-1022.912
N9680 X.2539 Y.4444 Z-.7006 C-1019.741
N9685 X.2289 Y.4578 Z-.7039 C-1016.569
N9690 X.2032 Y.4697 Z-.7072 C-1013.398
N9695 X.1769 Y.4803 Z-.7105 C-1010.226
N9700 X.1501 Y.4893 Z-.7138 C-1007.055
N9705 X.1228 Y.4969 Z-.7171 C-1003.883
N9710 X.0951 Y.5029 Z-.7204 C-1000.711
N9715 X.0672 Y.5074 Z-.7237 C-997.54
N9720 X.039 Y.5103 Z-.727 C-994.368
N9725 X.0107 Y.5117 Z-.7303 C-991.197
N9730 X-.0176 Y.5115 Z-.7336 C-988.025
N9735 X-.0459 Y.5097 Z-.7369 C-984.854
N9740 X-.074 Y.5064 Z-.7402 C-981.682
N9745 X-.1019 Y.5016 Z-.7435 C-978.511
N9750 X-.1295 Y.4951 Z-.7468 C-975.339
N9755 X-.1567 Y.4872 Z-.7501 C-972.168
N9760 X-.1835 Y.4778 Z-.7534 C-968.996
N9765 X-.2096 Y.4669 Z-.7567 C-965.824
N9770 X-.2351 Y.4546 Z-.76 C-962.653
N9775 X-.2599 Y.4409 Z-.7633 C-959.481
N9780 X-.2839 Y.4259 Z-.7666 C-956.31
N9785 X-.307 Y.4095 Z-.7699 C-953.138
N9790 X-.3292 Y.3919 Z-.7732 C-949.967
N9795 X-.3504 Y.3731 Z-.7766 C-946.795
N9800 X-.3705 Y.3531 Z-.7799 C-943.624
N9805 X-.3895 Y.3321 Z-.7832 C-940.452
N9810 X-.4072 Y.31 Z-.7865 C-937.281
N9815 X-.4238 Y.287 Z-.7898 C-934.109
N9820 X-.439 Y.2631 Z-.7931 C-930.937
N9825 X-.4529 Y.2384 Z-.7964 C-927.766
N9830 X-.4654 Y.213 Z-.7997 C-924.594
N9835 X-.4765 Y.1869 Z-.803 C-921.423
N9840 X-.4861 Y.1603 Z-.8063 C-918.251
N9845 X-.4942 Y.1332 Z-.8096 C-915.08
N9850 X-.5008 Y.1056 Z-.8129 C-911.908
N9855 X-.5059 Y.0777 Z-.8162 C-908.737
N9860 X-.5094 Y.0496 Z-.8195 C-905.565
N9865 X-.5114 Y.0214 Z-.8228 C-902.394
N9870 X-.5118 Y-.0069 Z-.8261 C-899.222
N9875 X-.5106 Y-.0353 Z-.8294 C-896.05
N9880 X-.5079 Y-.0634 Z-.8327 C-892.879
N9885 X-.5036 Y-.0914 Z-.836 C-889.707
N9890 X-.4977 Y-.1192 Z-.8393 C-886.536
N9895 X-.4904 Y-.1465 Z-.8426 C-883.364
N9900 X-.4815 Y-.1734 Z-.8459 C-880.193
N9905 X-.4712 Y-.1998 Z-.8492 C-877.021
N9910 X-.4594 Y-.2256 Z-.8525 C-873.85
N9915 X-.4462 Y-.2506 Z-.8558 C-870.678
N9920 X-.4317 Y-.2749 Z-.8591 C-867.507
N9925 X-.4158 Y-.2984 Z-.8624 C-864.335
N9930 X-.3987 Y-.321 Z-.8658 C-861.164
N9935 X-.3803 Y-.3425 Z-.8691 C-857.992
N9940 X-.3608 Y-.363 Z-.8724 C-854.82
N9945 X-.3401 Y-.3824 Z-.8757 C-851.649
N9950 X-.3185 Y-.4007 Z-.879 C-848.477
N9955 X-.2958 Y-.4177 Z-.8823 C-845.306
N9960 X-.2722 Y-.4334 Z-.8856 C-842.134
N9965 X-.2478 Y-.4478 Z-.8889 C-838.963
N9970 X-.2227 Y-.4608 Z-.8922 C-835.791
N9975 X-.1968 Y-.4724 Z-.8955 C-832.62
N9980 X-.1704 Y-.4826 Z-.8988 C-829.448
N9985 X-.1434 Y-.4913 Z-.9021 C-826.277
N9990 X-.116 Y-.4985 Z-.9054 C-823.105
N9995 X-.0883 Y-.5041 Z-.9087 C-819.933
N10000 X-.0603 Y-.5083 Z-.912 C-816.762
N10005 X-.0321 Y-.5108 Z-.9153 C-813.59
N10010 X-.0037 Y-.5118 Z-.9186 C-810.419
N10015 X.0246 Y-.5112 Z-.9219 C-807.247
N10020 X.0528 Y-.5091 Z-.9252 C-804.076
N10025 X.0809 Y-.5054 Z-.9285 C-800.904
N10030 X.1087 Y-.5001 Z-.9318 C-797.733
N10035 X.1362 Y-.4933 Z-.9351 C-794.561
N10040 X.1633 Y-.485 Z-.9384 C-791.39
N10045 X.1899 Y-.4753 Z-.9417 C-788.218
N10050 X.2159 Y-.464 Z-.945 C-785.046
N10055 X.2413 Y-.4514 Z-.9483 C-781.875
N10060 X.2659 Y-.4373 Z-.9516 C-778.703
N10065 X.2897 Y-.422 Z-.9549 C-775.532
N10070 X.3126 Y-.4053 Z-.9583 C-772.36
N10075 X.3345 Y-.3874 Z-.9616 C-769.189
N10080 X.3554 Y-.3683 Z-.9649 C-766.017
N10085 X.3753 Y-.348 Z-.9682 C-762.846
N10090 X.3939 Y-.3268 Z-.9715 C-759.674
N10095 X.4114 Y-.3045 Z-.9748 C-756.503
N10100 X.4276 Y-.2812 Z-.9781 C-753.331
N10105 X.4425 Y-.2571 Z-.9814 C-750.159
N10110 X.4561 Y-.2323 Z-.9847 C-746.988
N10115 X.4682 Y-.2067 Z-.988 C-743.816
N10120 X.4789 Y-.1805 Z-.9913 C-740.645
N10125 X.4882 Y-.1537 Z-.9946 C-737.473
N10130 X.4959 Y-.1264 Z-.9979 C-734.302
N10135 X.5022 Y-.0988 Z-1.0012 C-731.13
N10140 X.5069 Y-.0709 Z-1.0045 C-727.959
N10145 X.51 Y-.0427 Z-1.0078 C-724.787
N10150 X.5116 Y-.0144 Z-1.0111 C-721.616
N10155 Y.0139 Z-1.0144 C-718.444
N10160 X.5101 Y.0422 Z-1.0177 C-715.273
N10165 X.507 Y.0703 Z-1.021 C-712.101
N10170 X.5023 Y.0983 Z-1.0243 C-708.929
N10175 X.4961 Y.1259 Z-1.0276 C-705.758
N10180 X.4884 Y.1532 Z-1.0309 C-702.586
N10185 X.4791 Y.18 Z-1.0342 C-699.415
N10190 X.4684 Y.2062 Z-1.0375 C-696.243
N10195 X.4563 Y.2318 Z-1.0408 C-693.072
N10200 X.4428 Y.2567 Z-1.0441 C-689.9
N10205 X.4279 Y.2808 Z-1.0475 C-686.729
N10210 X.4117 Y.304 Z-1.0508 C-683.557
N10215 X.3943 Y.3263 Z-1.0541 C-680.386
N10220 X.3756 Y.3477 Z-1.0574 C-677.214
N10225 X.3558 Y.3679 Z-1.0607 C-674.042
N10230 X.3349 Y.387 Z-1.064 C-670.871
N10235 X.313 Y.405 Z-1.0673 C-667.699
N10240 X.2901 Y.4217 Z-1.0706 C-664.528
N10245 X.2663 Y.4371 Z-1.0739 C-661.356
N10250 X.2417 Y.4511 Z-1.0772 C-658.185
N10255 X.2164 Y.4638 Z-1.0805 C-655.013
N10260 X.1904 Y.4751 Z-1.0838 C-651.842
N10265 X.1638 Y.4849 Z-1.0871 C-648.67
N10270 X.1368 Y.4932 Z-1.0904 C-645.499
N10275 X.1093 Y.5 Z-1.0937 C-642.327
N10280 X.0814 Y.5053 Z-1.097 C-639.155
N10285 X.0534 Y.509 Z-1.1003 C-635.984
N10290 X.0251 Y.5112 Z-1.1036 C-632.812
N10295 X-.0032 Y.5118 Z-1.1069 C-629.641
N10300 X-.0315 Y.5108 Z-1.1102 C-626.469
N10305 X-.0597 Y.5083 Z-1.1135 C-623.298
N10310 X-.0878 Y.5042 Z-1.1168 C-620.126
N10315 X-.1155 Y.4986 Z-1.1201 C-616.955
N10320 X-.1429 Y.4914 Z-1.1234 C-613.783
N10325 X-.1699 Y.4828 Z-1.1267 C-610.612
N10330 X-.1964 Y.4726 Z-1.13 C-607.44
N10335 X-.2222 Y.4611 Z-1.1333 C-604.268
N10340 X-.2474 Y.4481 Z-1.1367 C-601.097
N10345 X-.2718 Y.4337 Z-1.14 C-597.925
N10350 X-.2954 Y.418 Z-1.1433 C-594.754
N10355 X-.318 Y.401 Z-1.1466 C-591.582
N10360 X-.3397 Y.3828 Z-1.1499 C-588.411
N10365 X-.3604 Y.3634 Z-1.1532 C-585.239
N10370 X-.3799 Y.3429 Z-1.1565 C-582.068
N10375 X-.3983 Y.3214 Z-1.1598 C-578.896
N10380 X-.4155 Y.2988 Z-1.1631 C-575.725
N10385 X-.4314 Y.2754 Z-1.1664 C-572.553
N10390 X-.446 Y.2511 Z-1.1697 C-569.382
N10395 X-.4592 Y.226 Z-1.173 C-566.21
N10400 X-.471 Y.2003 Z-1.1763 C-563.038
N10405 X-.4814 Y.1739 Z-1.1796 C-559.867
N10410 X-.4902 Y.147 Z-1.1829 C-556.695
N10415 X-.4976 Y.1197 Z-1.1862 C-553.524
N10420 X-.5035 Y.092 Z-1.1895 C-550.352
N10425 X-.5078 Y.064 Z-1.1928 C-547.181
N10430 X-.5106 Y.0358 Z-1.1961 C-544.009
N10435 X-.5118 Y.0075 Z-1.1994 C-540.838
N10440 X-.5114 Y-.0208 Z-1.2027 C-537.666
N10445 X-.5095 Y-.0491 Z-1.206 C-534.495
N10450 X-.506 Y-.0772 Z-1.2093 C-531.323
N10455 X-.5009 Y-.1051 Z-1.2126 C-528.151
N10460 X-.4943 Y-.1326 Z-1.2159 C-524.98
N10465 X-.4862 Y-.1598 Z-1.2192 C-521.808
N10470 X-.4766 Y-.1864 Z-1.2225 C-518.637
N10475 X-.4656 Y-.2125 Z-1.2259 C-515.465
N10480 X-.4531 Y-.238 Z-1.2292 C-512.294
N10485 X-.4393 Y-.2627 Z-1.2325 C-509.122
N10490 X-.4241 Y-.2866 Z-1.2358 C-505.951
N10495 X-.4076 Y-.3096 Z-1.2391 C-502.779
N10500 X-.3898 Y-.3317 Z-1.2424 C-499.608
N10505 X-.3709 Y-.3527 Z-1.2457 C-496.436
N10510 X-.3508 Y-.3727 Z-1.249 C-493.264
N10515 X-.3296 Y-.3915 Z-1.2523 C-490.093
N10520 X-.3075 Y-.4092 Z-1.2556 C-486.921
N10525 X-.2843 Y-.4256 Z-1.2589 C-483.75
N10530 X-.2604 Y-.4406 Z-1.2622 C-480.578
N10535 X-.2356 Y-.4544 Z-1.2655 C-477.407
N10540 X-.2101 Y-.4667 Z-1.2688 C-474.235
N10545 X-.1839 Y-.4776 Z-1.2721 C-471.064
N10550 X-.1572 Y-.4871 Z-1.2754 C-467.892
N10555 X-.1301 Y-.495 Z-1.2787 C-464.721
N10560 X-.1025 Y-.5014 Z-1.282 C-461.549
N10565 X-.0746 Y-.5063 Z-1.2853 C-458.378
N10570 X-.0464 Y-.5097 Z-1.2886 C-455.206
N10575 X-.0182 Y-.5115 Z-1.2919 C-452.034
N10580 X.0102 Y-.5117 Z-1.2952 C-448.863
N10585 X.0385 Y-.5104 Z-1.2985 C-445.691
N10590 X.0666 Y-.5075 Z-1.3018 C-442.52
N10595 X.0946 Y-.503 Z-1.3051 C-439.348
N10600 X.1223 Y-.497 Z-1.3084 C-436.177
N10605 X.1496 Y-.4895 Z-1.3117 C-433.005
N10610 X.1764 Y-.4804 Z-1.3151 C-429.834
N10615 X.2028 Y-.4699 Z-1.3184 C-426.662
N10620 X.2284 Y-.458 Z-1.3217 C-423.491
N10625 X.2534 Y-.4447 Z-1.325 C-420.319
N10630 X.2776 Y-.43 Z-1.3283 C-417.147
N10635 X.301 Y-.4139 Z-1.3316 C-413.976
N10640 X.3234 Y-.3966 Z-1.3349 C-410.804
N10645 X.3449 Y-.3781 Z-1.3382 C-407.633
N10650 X.3653 Y-.3585 Z-1.3415 C-404.461
N10655 X.3846 Y-.3377 Z-1.3448 C-401.29
N10660 X.4027 Y-.3159 Z-1.3481 C-398.118
N10665 X.4195 Y-.2932 Z-1.3514 C-394.947
N10670 X.4351 Y-.2695 Z-1.3547 C-391.775
N10675 X.4493 Y-.245 Z-1.358 C-388.604
N10680 X.4622 Y-.2198 Z-1.3613 C-385.432
N10685 X.4737 Y-.1939 Z-1.3646 C-382.26
N10690 X.4837 Y-.1674 Z-1.3679 C-379.089
N10695 X.4922 Y-.1404 Z-1.3712 C-375.917
N10700 X.4992 Y-.1129 Z-1.3745 C-372.746
N10705 X.5047 Y-.0851 Z-1.3778 C-369.574
N10710 X.5086 Y-.0571 Z-1.3811 C-366.403
N10715 X.511 Y-.0288 Z-1.3844 C-363.231
N10720 X.5118 Y-.0005 Z-1.3877 C-360.06
N10725 X.5111 Y.0278 Z-1.391 C-356.888
N10730 X.5087 Y.056 Z-1.3943 C-353.717
N10735 X.5049 Y.0841 Z-1.3976 C-350.545
N10740 X.4994 Y.1119 Z-1.4009 C-347.373
N10745 X.4925 Y.1393 Z-1.4043 C-344.202
N10750 X.484 Y.1664 Z-1.4076 C-341.03
N10755 X.4741 Y.1929 Z-1.4109 C-337.859
N10760 X.4627 Y.2188 Z-1.4142 C-334.687
N10765 X.4499 Y.2441 Z-1.4175 C-331.516
N10770 X.4357 Y.2686 Z-1.4208 C-328.344
N10775 X.4201 Y.2923 Z-1.4241 C-325.173
N10780 X.4033 Y.3151 Z-1.4274 C-322.001
N10785 X.3853 Y.3369 Z-1.4307 C-318.83
N10790 X.366 Y.3577 Z-1.434 C-315.658
N10795 X.3457 Y.3774 Z-1.4373 C-312.487
N10800 X.3243 Y.396 Z-1.4406 C-309.315
N10805 X.3019 Y.4133 Z-1.4439 C-306.143
N10810 X.2785 Y.4294 Z-1.4472 C-302.972
N10815 X.2544 Y.4441 Z-1.4505 C-299.8
N10820 X.2294 Y.4575 Z-1.4538 C-296.629
N10825 X.2037 Y.4695 Z-1.4571 C-293.457
N10830 X.1774 Y.4801 Z-1.4604 C-290.286
N10835 X.1506 Y.4891 Z-1.4637 C-287.114
N10840 X.1233 Y.4967 Z-1.467 C-283.943
N10845 X.0957 Y.5028 Z-1.4703 C-280.771
N10850 X.0677 Y.5073 Z-1.4736 C-277.6
N10855 X.0395 Y.5103 Z-1.4769 C-274.428
N10860 X.0112 Y.5117 Z-1.4802 C-271.256
N10865 X-.0171 Y.5115 Z-1.4835 C-268.085
N10870 X-.0454 Y.5098 Z-1.4868 C-264.913
N10875 X-.0735 Y.5065 Z-1.4901 C-261.742
N10880 X-.1014 Y.5017 Z-1.4935 C-258.57
N10885 X-.129 Y.4953 Z-1.4968 C-255.399
N10890 X-.1562 Y.4874 Z-1.5001 C-252.227
N10895 X-.183 Y.478 Z-1.5034 C-249.056
N10900 X-.2091 Y.4671 Z-1.5067 C-245.884
N10905 X-.2346 Y.4549 Z-1.51 C-242.713
N10910 X-.2594 Y.4412 Z-1.5133 C-239.541
N10915 X-.2835 Y.4261 Z-1.5166 C-236.369
N10920 X-.3066 Y.4098 Z-1.5199 C-233.198
N10925 X-.3288 Y.3922 Z-1.5232 C-230.026
N10930 X-.35 Y.3734 Z-1.5265 C-226.855
N10935 X-.3701 Y.3535 Z-1.5298 C-223.683
N10940 X-.3891 Y.3325 Z-1.5331 C-220.512
N10945 X-.4069 Y.3104 Z-1.5364 C-217.34
N10950 X-.4235 Y.2874 Z-1.5397 C-214.169
N10955 X-.4387 Y.2636 Z-1.543 C-210.997
N10960 X-.4526 Y.2389 Z-1.5463 C-207.826
N10965 X-.4652 Y.2135 Z-1.5496 C-204.654
N10970 X-.4763 Y.1874 Z-1.5529 C-201.482
N10975 X-.4859 Y.1608 Z-1.5562 C-198.311
N10980 X-.494 Y.1337 Z-1.5595 C-195.139
N10985 X-.5007 Y.1061 Z-1.5628 C-191.968
N10990 X-.5058 Y.0783 Z-1.5661 C-188.796
N10995 X-.5093 Y.0502 Z-1.5694 C-185.625
N11000 X-.5113 Y.0219 Z-1.5727 C-182.453
N11005 X-.5118 Y-.0064 Z-1.576 C-179.282
N11010 X-.5106 Y-.0347 Z-1.5793 C-176.11
N11015 X-.5079 Y-.0629 Z-1.5827 C-172.939
N11020 X-.5037 Y-.0909 Z-1.586 C-169.767
N11025 X-.4979 Y-.1187 Z-1.5893 C-166.596
N11030 X-.4905 Y-.146 Z-1.5926 C-163.424
N11035 X-.4817 Y-.1729 Z-1.5959 C-160.252
N11040 X-.4714 Y-.1993 Z-1.5992 C-157.081
N11045 X-.4597 Y-.2251 Z-1.6025 C-153.909
N11050 X-.4466 Y-.2501 C-150.751
N11055 X-.4321 Y-.2743 C-147.594
N11060 X-.4163 Y-.2977 C-144.436
N11065 X-.3993 Y-.3202 C-141.278
N11070 X-.3811 Y-.3417 C-138.12
N11075 X-.3617 Y-.3621 C-134.962
N11080 X-.3412 Y-.3815 C-131.804
N11085 X-.3196 Y-.3997 C-128.646
N11090 X-.2971 Y-.4167 C-125.488
N11095 X-.2737 Y-.4325 C-122.33
N11100 X-.2495 Y-.4469 C-119.173
N11105 X-.2245 Y-.46 C-116.015
N11110 X-.1988 Y-.4716 C-112.857
N11115 X-.1725 Y-.4819 C-109.699
N11120 X-.1457 Y-.4906 C-106.541
N11125 X-.1185 Y-.4979 C-103.383
N11130 X-.0909 Y-.5037 C-100.225
N11135 X-.063 Y-.5079 C-97.067
N11140 X-.0349 Y-.5106 C-93.909
N11145 X-.0067 Y-.5118 C-90.751
N11150 X.0215 Y-.5114 C-87.594
N11155 X.0496 Y-.5094 C-84.436
N11160 X.0776 Y-.5059 C-81.278
N11165 X.1054 Y-.5008 C-78.12
N11170 X.1328 Y-.4943 C-74.962
N11175 X.1598 Y-.4862 C-71.804
N11180 X.1864 Y-.4767 C-68.646
N11185 X.2123 Y-.4657 C-65.488
N11190 X.2377 Y-.4533 C-62.33
N11195 X.2623 Y-.4395 C-59.173
N11200 X.2861 Y-.4244 C-56.015
N11205 X.309 Y-.408 C-52.857
N11210 X.331 Y-.3903 C-49.699
N11215 X.352 Y-.3715 C-46.541
N11220 X.372 Y-.3515 C-43.383
N11225 X.3908 Y-.3305 C-40.225
N11230 X.4084 Y-.3085 C-37.067
N11235 X.4248 Y-.2855 C-33.909
N11240 X.4398 Y-.2617 C-30.751
N11245 X.4536 Y-.2371 C-27.594
N11250 X.466 Y-.2117 C-24.436
N11255 X.4769 Y-.1857 C-21.278
N11260 X.4864 Y-.1592 C-18.12
N11265 X.4945 Y-.1321 C-14.962
N11270 X.501 Y-.1047 C-11.804
N11275 X.506 Y-.0769 C-8.646
N11280 X.5095 Y-.049 C-5.488
N11285 X.5114 Y-.0208 C-2.33
N11290 X.5118 Y.0074 C.827
N11295 X.5106 Y.0356 C3.985
N11300 X.5078 Y.0636 C7.143
N11305 X.5036 Y.0915 C10.301
N11310 X.4978 Y.1191 C13.459
N11315 X.4904 Y.1464 C16.617
N11320 X.4816 Y.1732 C19.775
N11325 X.4714 Y.1994 C22.933
N11330 X.4597 Y.2251 C26.091
N11335 X.4466 Y.2501 C29.249
N11340 X.4321 Y.2743 C32.406
N11345 X.4163 Y.2977 C35.564
N11350 X.3993 Y.3202 C38.722
N11355 X.3811 Y.3417 C41.88
N11360 X.3617 Y.3621 C45.038
N11365 X.3412 Y.3815 C48.196
N11370 X.3196 Y.3997 C51.354
N11375 X.2971 Y.4167 C54.512
N11380 X.2737 Y.4325 C57.67
N11385 X.2495 Y.4469 C60.827
N11390 X.2245 Y.46 C63.985
N11395 X.1988 Y.4716 C67.143
N11400 X.1725 Y.4819 C70.301
N11405 X.1457 Y.4906 C73.459
N11410 X.1185 Y.4979 C76.617
N11415 X.0909 Y.5037 C79.775
N11420 X.063 Y.5079 C82.933
N11425 X.0349 Y.5106 C86.091
N11430 X.0067 Y.5118 C89.249
N11435 X-.0215 Y.5114 C92.406
N11440 X-.0496 Y.5094 C95.564
N11445 X-.0776 Y.5059 C98.722
N11450 X-.1054 Y.5008 C101.88
N11455 X-.1328 Y.4943 C105.038
N11460 X-.1598 Y.4862 C108.196
N11465 X-.1864 Y.4767 C111.354
N11470 X-.2123 Y.4657 C114.512
N11475 X-.2377 Y.4533 C117.67
N11480 X-.2623 Y.4395 C120.827
N11485 X-.2861 Y.4244 C123.985
N11490 X-.309 Y.408 C127.143
N11495 X-.331 Y.3903 C130.301
N11500 X-.352 Y.3715 C133.459
N11505 X-.372 Y.3515 C136.617
N11510 X-.3908 Y.3305 C139.775
N11515 X-.4084 Y.3085 C142.933
N11520 X-.4248 Y.2855 C146.091
N11525 X-.4398 Y.2617 C149.249
N11530 X-.4536 Y.2371 C152.406
N11535 X-.466 Y.2117 C155.564
N11540 X-.4769 Y.1857 C158.722
N11545 X-.4864 Y.1592 C161.88
N11550 X-.4945 Y.1321 C165.038
N11555 X-.501 Y.1047 C168.196
N11560 X-.506 Y.0769 C171.354
N11565 X-.5095 Y.049 C174.512
N11570 X-.5114 Y.0208 C177.67
N11575 X-.5118 Y-.0074 C180.827
N11580 X-.5106 Y-.0356 C183.985
N11585 X-.5078 Y-.0636 C187.143
N11590 X-.5036 Y-.0915 C190.301
N11595 X-.4978 Y-.1191 C193.459
N11600 X-.4904 Y-.1464 C196.617
N11605 X-.4816 Y-.1732 C199.775
N11610 X-.4714 Y-.1994 C202.933
N11615 X-.4597 Y-.2251 C206.091
N11620 X-.8203 Y-.4017
N11625 G00 X-1.3214 Y.6216 Z-.6378
N11630 G01 X-.9501 Y.8034
N11635 X-.9481 Y.7991
N11640 X-.449 Y-.2199
N11645 X-.436 Y-.2447 C209.305
N11650 X-.4216 Y-.2688 C212.519
N11655 X-.4059 Y-.292 C215.734
N11660 X-.3889 Y-.3143 C218.948
N11665 X-.3706 Y-.3356 C222.162
N11670 X-.3512 Y-.3559 C225.376
N11675 X-.3307 Y-.375 C228.591
N11680 X-.3092 Y-.393 C231.805
N11685 X-.2867 Y-.4097 C235.019
N11690 X-.2632 Y-.4251 C238.234
N11695 X-.239 Y-.4392 C241.448
N11700 X-.214 Y-.4519 C244.662
N11705 X-.1883 Y-.4632 C247.876
N11710 X-.162 Y-.473 C251.091
N11715 X-.1353 Y-.4814 C254.305
N11720 X-.1081 Y-.4882 C257.519
N11725 X-.0805 Y-.4935 C260.734
N11730 X-.0527 Y-.4972 C263.948
N11735 X-.0248 Y-.4994 C267.162
N11740 X.0033 Y-.5 C270.376
N11745 X.0313 Y-.499 C273.591
N11750 X.0592 Y-.4965 C276.805
N11755 X.087 Y-.4924 C280.019
N11760 X.1145 Y-.4867 C283.234
N11765 X.1416 Y-.4795 C286.448
N11770 X.1682 Y-.4708 C289.662
N11775 X.1944 Y-.4607 C292.876
N11780 X.2199 Y-.449 C296.091
N11785 X.2447 Y-.436 C299.305
N11790 X.2688 Y-.4216 C302.519
N11795 X.292 Y-.4059 C305.734
N11800 X.3143 Y-.3889 C308.948
N11805 X.3356 Y-.3706 C312.162
N11810 X.3559 Y-.3512 C315.376
N11815 X.375 Y-.3307 C318.591
N11820 X.393 Y-.3092 C321.805
N11825 X.4097 Y-.2867 C325.019
N11830 X.4251 Y-.2632 C328.234
N11835 X.4392 Y-.239 C331.448
N11840 X.4519 Y-.214 C334.662
N11845 X.4632 Y-.1883 C337.876
N11850 X.473 Y-.162 C341.091
N11855 X.4814 Y-.1353 C344.305
N11860 X.4882 Y-.1081 C347.519
N11865 X.4935 Y-.0805 C350.734
N11870 X.4972 Y-.0527 C353.948
N11875 X.4994 Y-.0248 C357.162
N11880 X.5 Y.0033 C360.376
N11885 X.499 Y.0313 C363.591
N11890 X.4965 Y.0592 C366.805
N11895 X.4924 Y.087 C370.019
N11900 X.4867 Y.1145 C373.234
N11905 X.4795 Y.1416 C376.448
N11910 X.4708 Y.1682 C379.662
N11915 X.4607 Y.1944 C382.876
N11920 X.449 Y.2199 C386.091
N11925 X.436 Y.2447 C389.305
N11930 X.4216 Y.2688 C392.519
N11935 X.4059 Y.292 C395.734
N11940 X.3889 Y.3143 C398.948
N11945 X.3706 Y.3356 C402.162
N11950 X.3512 Y.3559 C405.376
N11955 X.3307 Y.375 C408.591
N11960 X.3092 Y.393 C411.805
N11965 X.2867 Y.4097 C415.019
N11970 X.2632 Y.4251 C418.234
N11975 X.239 Y.4392 C421.448
N11980 X.214 Y.4519 C424.662
N11985 X.1883 Y.4632 C427.876
N11990 X.162 Y.473 C431.091
N11995 X.1353 Y.4814 C434.305
N12000 X.1081 Y.4882 C437.519
N12005 X.0805 Y.4935 C440.734
N12010 X.0527 Y.4972 C443.948
N12015 X.0248 Y.4994 C447.162
N12020 X-.0033 Y.5 C450.376
N12025 X-.0313 Y.499 C453.591
N12030 X-.0592 Y.4965 C456.805
N12035 X-.087 Y.4924 C460.019
N12040 X-.1145 Y.4867 C463.234
N12045 X-.1416 Y.4795 C466.448
N12050 X-.1682 Y.4708 C469.662
N12055 X-.1944 Y.4607 C472.876
N12060 X-.2199 Y.449 C476.091
N12065 X-.2447 Y.436 C479.305
N12070 X-.2688 Y.4216 C482.519
N12075 X-.292 Y.4059 C485.734
N12080 X-.3143 Y.3889 C488.948
N12085 X-.3356 Y.3706 C492.162
N12090 X-.3559 Y.3512 C495.376
N12095 X-.375 Y.3307 C498.591
N12100 X-.393 Y.3092 C501.805
N12105 X-.4097 Y.2867 C505.019
N12110 X-.4251 Y.2632 C508.234
N12115 X-.4392 Y.239 C511.448
N12120 X-.4519 Y.214 C514.662
N12125 X-.4632 Y.1883 C517.876
N12130 X-.473 Y.162 C521.091
N12135 X-.4814 Y.1353 C524.305
N12140 X-.4882 Y.1081 C527.519
N12145 X-.4935 Y.0805 C530.734
N12150 X-.4972 Y.0527 C533.948
N12155 X-.4994 Y.0248 C537.162
N12160 X-.5 Y-.0033 C540.376
N12165 X-.499 Y-.0313 C543.591
N12170 X-.4965 Y-.0592 C546.805
N12175 X-.4924 Y-.087 C550.019
N12180 X-.4867 Y-.1145 C553.234
N12185 X-.4795 Y-.1416 C556.448
N12190 X-.4708 Y-.1682 C559.662
N12195 X-.4607 Y-.1944 C562.876
N12200 X-.449 Y-.2199 C566.091
N12205 X-.436 Y-.2447 Z-.6411 C569.306
N12210 X-.4216 Y-.2688 Z-.6445 C572.52
N12215 X-.4059 Y-.292 Z-.6478 C575.735
N12220 X-.3888 Y-.3143 Z-.6512 C578.95
N12225 X-.3706 Y-.3356 Z-.6545 C582.165
N12230 X-.3512 Y-.3559 Z-.6579 C585.38
N12235 X-.3307 Y-.375 Z-.6612 C588.595
N12240 X-.3091 Y-.393 Z-.6646 C591.81
N12245 X-.2866 Y-.4097 Z-.6679 C595.025
N12250 X-.2632 Y-.4251 Z-.6713 C598.24
N12255 X-.2389 Y-.4392 Z-.6746 C601.455
N12260 X-.2139 Y-.4519 Z-.678 C604.67
N12265 X-.1882 Y-.4632 Z-.6813 C607.884
N12270 X-.162 Y-.473 Z-.6847 C611.099
N12275 X-.1352 Y-.4814 Z-.688 C614.314
N12280 X-.108 Y-.4882 Z-.6914 C617.529
N12285 X-.0804 Y-.4935 Z-.6947 C620.744
N12290 X-.0526 Y-.4972 Z-.6981 C623.959
N12295 X-.0247 Y-.4994 Z-.7014 C627.174
N12300 X.0034 Y-.5 Z-.7048 C630.389
N12305 X.0314 Y-.499 Z-.7081 C633.604
N12310 X.0594 Y-.4965 Z-.7115 C636.819
N12315 X.0871 Y-.4924 Z-.7148 C640.033
N12320 X.1146 Y-.4867 Z-.7182 C643.248
N12325 X.1417 Y-.4795 Z-.7215 C646.463
N12330 X.1684 Y-.4708 Z-.7249 C649.678
N12335 X.1945 Y-.4606 Z-.7282 C652.893
N12340 X.22 Y-.449 Z-.7316 C656.108
N12345 X.2449 Y-.4359 Z-.7349 C659.323
N12350 X.2689 Y-.4215 Z-.7383 C662.538
N12355 X.2921 Y-.4058 Z-.7416 C665.753
N12360 X.3144 Y-.3888 Z-.745 C668.968
N12365 X.3357 Y-.3705 Z-.7483 C672.183
N12370 X.356 Y-.3511 Z-.7517 C675.397
N12375 X.3751 Y-.3306 Z-.755 C678.612
N12380 X.3931 Y-.309 Z-.7584 C681.827
N12385 X.4098 Y-.2865 Z-.7617 C685.042
N12390 X.4252 Y-.2631 Z-.7651 C688.257
N12395 X.4393 Y-.2388 Z-.7684 C691.472
N12400 X.452 Y-.2138 Z-.7717 C694.687
N12405 X.4633 Y-.1881 Z-.7751 C697.902
N12410 X.4731 Y-.1618 Z-.7784 C701.117
N12415 X.4814 Y-.135 Z-.7818 C704.332
N12420 X.4882 Y-.1078 Z-.7851 C707.546
N12425 X.4935 Y-.0803 Z-.7885 C710.761
N12430 X.4972 Y-.0525 Z-.7918 C713.976
N12435 X.4994 Y-.0245 Z-.7952 C717.191
N12440 X.5 Y.0035 Z-.7985 C720.406
N12445 X.499 Y.0316 Z-.8019 C723.621
N12450 X.4964 Y.0595 Z-.8052 C726.836
N12455 X.4923 Y.0873 Z-.8086 C730.051
N12460 X.4867 Y.1147 Z-.8119 C733.266
N12465 X.4795 Y.1418 Z-.8153 C736.481
N12470 X.4707 Y.1685 Z-.8186 C739.696
N12475 X.4606 Y.1946 Z-.822 C742.91
N12480 X.4489 Y.2202 Z-.8253 C746.125
N12485 X.4359 Y.245 Z-.8287 C749.34
N12490 X.4214 Y.2691 Z-.832 C752.555
N12495 X.4057 Y.2923 Z-.8354 C755.77
N12500 X.3887 Y.3146 Z-.8387 C758.985
N12505 X.3704 Y.3359 Z-.8421 C762.2
N12510 X.351 Y.3561 Z-.8454 C765.415
N12515 X.3305 Y.3752 Z-.8488 C768.63
N12520 X.3089 Y.3932 Z-.8521 C771.845
N12525 X.2864 Y.4099 Z-.8555 C775.06
N12530 X.2629 Y.4253 Z-.8588 C778.274
N12535 X.2387 Y.4394 Z-.8622 C781.489
N12540 X.2136 Y.4521 Z-.8655 C784.704
N12545 X.188 Y.4633 Z-.8689 C787.919
N12550 X.1617 Y.4731 Z-.8722 C791.134
N12555 X.1349 Y.4815 Z-.8756 C794.349
N12560 X.1077 Y.4883 Z-.8789 C797.564
N12565 X.0801 Y.4935 Z-.8823 C800.779
N12570 X.0523 Y.4973 Z-.8856 C803.994
N12575 X.0244 Y.4994 Z-.889 C807.209
N12580 X-.0037 Y.5 Z-.8923 C810.423
N12585 X-.0317 Y.499 Z-.8957 C813.638
N12590 X-.0597 Y.4964 Z-.899 C816.853
N12595 X-.0874 Y.4923 Z-.9024 C820.068
N12600 X-.1149 Y.4866 Z-.9057 C823.283
N12605 X-.142 Y.4794 Z-.9091 C826.498
N12610 X-.1687 Y.4707 Z-.9124 C829.713
N12615 X-.1948 Y.4605 Z-.9158 C832.928
N12620 X-.2203 Y.4488 Z-.9191 C836.143
N12625 X-.2451 Y.4358 Z-.9224 C839.358
N12630 X-.2692 Y.4214 Z-.9258 C842.573
N12635 X-.2924 Y.4056 Z-.9291 C845.787
N12640 X-.3147 Y.3886 Z-.9325 C849.002
N12645 X-.336 Y.3703 Z-.9358 C852.217
N12650 X-.3562 Y.3509 Z-.9392 C855.432
N12655 X-.3753 Y.3303 Z-.9425 C858.647
N12660 X-.3933 Y.3088 Z-.9459 C861.862
N12665 X-.41 Y.2862 Z-.9492 C865.077
N12670 X-.4254 Y.2628 Z-.9526 C868.292
N12675 X-.4394 Y.2385 Z-.9559 C871.507
N12680 X-.4521 Y.2135 Z-.9593 C874.722
N12685 X-.4634 Y.1878 Z-.9626 C877.936
N12690 X-.4732 Y.1615 Z-.966 C881.151
N12695 X-.4815 Y.1347 Z-.9693 C884.366
N12700 X-.4883 Y.1075 Z-.9727 C887.581
N12705 X-.4936 Y.08 Z-.976 C890.796
N12710 X-.4973 Y.0522 Z-.9794 C894.011
N12715 X-.4994 Y.0242 Z-.9827 C897.226
N12720 X-.5 Y-.0038 Z-.9861 C900.441
N12725 X-.499 Y-.0319 Z-.9894 C903.656
N12730 X-.4964 Y-.0598 Z-.9928 C906.871
N12735 X-.4923 Y-.0876 Z-.9961 C910.086
N12740 X-.4866 Y-.115 Z-.9995 C913.3
N12745 X-.4794 Y-.1421 Z-1.0028 C916.515
N12750 X-.4706 Y-.1688 Z-1.0062 C919.73
N12755 X-.4604 Y-.1949 Z-1.0095 C922.945
N12760 X-.4488 Y-.2204 Z-1.0129 C926.16
N12765 X-.4357 Y-.2453 Z-1.0162 C929.375
N12770 X-.4213 Y-.2693 Z-1.0196 C932.59
N12775 X-.4055 Y-.2925 Z-1.0229 C935.805
N12780 X-.3885 Y-.3148 Z-1.0263 C939.02
N12785 X-.3702 Y-.3361 Z-1.0296 C942.235
N12790 X-.3508 Y-.3563 Z-1.033 C945.449
N12795 X-.3302 Y-.3754 Z-1.0363 C948.664
N12800 X-.3087 Y-.3934 Z-1.0397 C951.879
N12805 X-.2861 Y-.41 Z-1.043 C955.094
N12810 X-.2627 Y-.4254 Z-1.0464 C958.309
N12815 X-.2384 Y-.4395 Z-1.0497 C961.524
N12820 X-.2134 Y-.4522 Z-1.0531 C964.739
N12825 X-.1877 Y-.4634 Z-1.0564 C967.954
N12830 X-.1614 Y-.4732 Z-1.0598 C971.169
N12835 X-.1346 Y-.4815 Z-1.0631 C974.384
N12840 X-.1074 Y-.4883 Z-1.0664 C977.599
N12845 X-.0798 Y-.4936 Z-1.0698 C980.813
N12850 X-.052 Y-.4973 Z-1.0731 C984.028
N12855 X-.024 Y-.4994 Z-1.0765 C987.243
N12860 X.004 Y-.5 Z-1.0798 C990.458
N12865 X.032 Y-.499 Z-1.0832 C993.673
N12870 X.06 Y-.4964 Z-1.0865 C996.888
N12875 X.0877 Y-.4922 Z-1.0899 C1000.103
N12880 X.1152 Y-.4866 Z-1.0932 C1003.318
N12885 X.1423 Y-.4793 Z-1.0966 C1006.533
N12890 X.1689 Y-.4706 Z-1.0999 C1009.748
N12895 X.1951 Y-.4604 Z-1.1033 C1012.962
N12900 X.2206 Y-.4487 Z-1.1066 C1016.177
N12905 X.2454 Y-.4356 Z-1.11 C1019.392
N12910 X.2694 Y-.4212 Z-1.1133 C1022.607
N12915 X.2926 Y-.4054 Z-1.1167 C1025.822
N12920 X.3149 Y-.3884 Z-1.12 C1029.037
N12925 X.3362 Y-.3701 Z-1.1234 C1032.252
N12930 X.3564 Y-.3507 Z-1.1267 C1035.467
N12935 X.3755 Y-.3301 Z-1.1301 C1038.682
N12940 X.3934 Y-.3085 Z-1.1334 C1041.897
N12945 X.4101 Y-.286 Z-1.1368 C1045.112
N12950 X.4255 Y-.2625 Z-1.1401 C1048.326
N12955 X.4396 Y-.2383 Z-1.1435 C1051.541
